( Generated by Carbide Copper )
( Material Size )
( X= 152.400, Y= 101.600, Z= 1.580 )
()
G17
G21
G54
G90
M05
(  )
T502 M06
( Contour )
M03 S10000
G0  X0.045 Y52.106
G0  Z3.000
G01 F400 Z0
G01 F400 Z-0.100
G01F400X0.000 Y52.095
X-0.045 Y52.063
X-0.068 Y52.023
X-0.075 Y51.985
X-0.071 Y30.432
X-0.044 Y30.383
X-0.004 Y30.354
X0.045 Y30.340
X0.096 Y30.350
X0.136 Y30.374
X0.183 Y30.422
X0.745 Y30.746
X1.372 Y30.914
X2.022 Y30.914
X2.649 Y30.746
X3.211 Y30.422
X3.671 Y29.962
X3.995 Y29.400
X4.163 Y28.773
X4.163 Y28.123
X3.995 Y27.496
X3.671 Y26.934
X3.211 Y26.475
X2.649 Y26.150
X2.022 Y25.982
X1.372 Y25.982
X0.745 Y26.150
X0.182 Y26.475
X0.110 Y26.540
X0.058 Y26.556
X0.009 Y26.547
X-0.035 Y26.523
X-0.065 Y26.480
X-0.075 Y26.434
X-0.071 Y23.447
X-0.044 Y23.398
X-0.004 Y23.369
X0.045 Y23.355
X0.096 Y23.365
X0.136 Y23.389
X0.310 Y23.564
X0.872 Y23.888
X1.499 Y24.056
X2.149 Y24.056
X2.776 Y23.888
X3.338 Y23.564
X3.798 Y23.104
X4.122 Y22.542
X4.290 Y21.915
X4.290 Y21.265
X4.122 Y20.638
X3.798 Y20.076
X3.338 Y19.617
X2.776 Y19.292
X2.149 Y19.124
X1.499 Y19.124
X0.872 Y19.292
X0.309 Y19.617
X0.111 Y19.809
X0.058 Y19.825
X0.009 Y19.816
X-0.035 Y19.792
X-0.065 Y19.749
X-0.075 Y19.703
X-0.075 Y1.562
X-0.065 Y1.517
X-0.033 Y1.472
X0.007 Y1.449
X0.045 Y1.441
X4.725 Y1.396
X4.774 Y1.422
X4.803 Y1.462
X4.817 Y1.510
X4.807 Y1.562
X4.783 Y1.602
X4.424 Y1.961
X4.424 Y3.119
X5.243 Y3.938
X6.401 Y3.938
X7.007 Y3.332
X7.046 Y3.308
X7.101 Y3.298
X7.145 Y3.311
X7.178 Y3.333
X7.783 Y3.938
X8.941 Y3.938
X9.547 Y3.332
X9.586 Y3.308
X9.641 Y3.298
X9.685 Y3.311
X9.718 Y3.333
X10.323 Y3.938
X11.481 Y3.938
X12.087 Y3.332
X12.126 Y3.308
X12.181 Y3.298
X12.225 Y3.311
X12.258 Y3.333
X12.286 Y3.361
X12.310 Y3.400
X12.320 Y3.455
X12.307 Y3.499
X12.285 Y3.532
X12.030 Y3.786
X8.282 Y7.535
X8.249 Y7.557
X8.202 Y7.568
X7.704 Y7.568
X7.264 Y7.751
X7.229 Y7.783
X7.174 Y7.800
X7.121 Y7.793
X6.903 Y7.703
X5.581 Y7.703
X5.375 Y7.788
X5.217 Y7.946
X5.161 Y8.082
X6.314 Y8.082
X6.454 Y8.111
X6.585 Y8.170
X6.644 Y8.213
X6.842 Y8.213
X6.842 Y8.439
X6.868 Y8.484
X6.912 Y8.620
X6.927 Y8.763
X6.912 Y8.905
X6.868 Y9.042
X6.842 Y9.087
X6.842 Y9.313
X6.644 Y9.313
X6.585 Y9.357
X6.454 Y9.415
X6.314 Y9.444
X5.161 Y9.444
X5.217 Y9.580
X5.375 Y9.738
X5.581 Y9.823
X6.634 Y9.827
X6.683 Y9.854
X6.712 Y9.895
X6.726 Y9.943
X6.716 Y9.994
X6.692 Y10.034
X4.975 Y11.750
X4.945 Y11.769
X4.530 Y11.941
X4.194 Y12.277
X4.012 Y12.716
X4.012 Y13.864
X4.005 Y13.900
X3.986 Y13.946
X3.986 Y15.519
X4.006 Y15.568
X4.012 Y15.603
X4.012 Y16.621
X4.194 Y17.060
X4.530 Y17.396
X4.969 Y17.578
X6.607 Y17.578
X6.705 Y17.537
X6.744 Y17.528
X6.795 Y17.538
X6.839 Y17.566
X6.865 Y17.608
X6.874 Y17.650
X6.874 Y20.773
X7.056 Y21.212
X7.181 Y21.337
X7.203 Y21.369
X7.214 Y21.416
X7.214 Y21.970
X7.505 Y22.672
X8.042 Y23.209
X8.744 Y23.500
X9.504 Y23.500
X10.206 Y23.209
X10.743 Y22.672
X11.034 Y21.970
X11.034 Y21.210
X10.743 Y20.508
X10.432 Y20.196
X10.411 Y20.152
X10.412 Y20.097
X10.431 Y20.052
X10.572 Y19.863
X10.644 Y19.588
X10.667 Y19.549
X10.703 Y19.522
X10.747 Y19.507
X10.802 Y19.515
X10.846 Y19.540
X11.114 Y19.809
X11.553 Y19.991
X13.843 Y19.992
X13.887 Y20.013
X13.922 Y20.048
X13.940 Y20.098
X13.938 Y20.151
X13.915 Y20.194
X13.883 Y20.223
X13.759 Y20.295
X13.598 Y20.419
X13.453 Y20.564
X13.329 Y20.725
X13.227 Y20.901
X13.149 Y21.089
X13.097 Y21.286
X13.083 Y21.388
X13.245 Y21.388
X13.254 Y21.299
X13.345 Y21.021
X13.491 Y20.767
X13.687 Y20.549
X13.924 Y20.377
X14.191 Y20.258
X14.478 Y20.197
X14.770 Y20.197
X15.057 Y20.258
X15.324 Y20.377
X15.561 Y20.549
X15.757 Y20.767
X15.903 Y21.021
X15.994 Y21.299
X16.003 Y21.388
X16.165 Y21.388
X16.151 Y21.286
X16.099 Y21.089
X16.021 Y20.901
X15.904 Y20.699
X15.894 Y20.655
X15.905 Y20.600
X15.937 Y20.555
X15.977 Y20.532
X16.016 Y20.524
X16.402 Y20.524
X16.776 Y20.369
X16.807 Y20.338
X16.847 Y20.314
X16.902 Y20.304
X16.946 Y20.317
X16.978 Y20.339
X17.929 Y21.290
X17.951 Y21.322
X17.962 Y21.369
X17.962 Y27.779
X17.954 Y27.818
X17.930 Y27.859
X13.045 Y32.737
X12.992 Y32.753
X12.943 Y32.744
X12.899 Y32.720
X12.870 Y32.677
X12.859 Y32.631
X12.861 Y29.159
X12.886 Y29.109
X12.929 Y29.073
X12.974 Y29.062
X13.021 Y29.066
X13.069 Y29.094
X13.097 Y29.131
X13.202 Y29.313
X13.326 Y29.475
X13.471 Y29.619
X13.632 Y29.743
X13.808 Y29.845
X13.996 Y29.923
X14.193 Y29.975
X14.295 Y29.989
X14.295 Y29.829
X14.064 Y29.780
X13.797 Y29.661
X13.560 Y29.489
X13.364 Y29.271
X13.218 Y29.018
X13.127 Y28.739
X13.097 Y28.448
X13.127 Y28.157
X13.218 Y27.879
X13.364 Y27.625
X13.560 Y27.407
X13.797 Y27.235
X13.812 Y27.229
X13.812 Y27.050
X13.808 Y27.051
X13.632 Y27.153
X13.471 Y27.277
X13.326 Y27.422
X13.202 Y27.583
X13.086 Y27.785
X13.046 Y27.819
X12.993 Y27.835
X12.947 Y27.829
X12.905 Y27.808
X12.871 Y27.763
X12.859 Y27.715
X12.859 Y25.289
X12.677 Y24.850
X12.341 Y24.514
X11.902 Y24.332
X6.092 Y24.332
X5.653 Y24.514
X5.317 Y24.850
X5.135 Y25.289
X5.135 Y43.291
X5.317 Y43.730
X5.653 Y44.066
X6.092 Y44.248
X14.442 Y44.248
X14.881 Y44.066
X32.235 Y26.712
X32.417 Y26.273
X32.421 Y3.440
X32.448 Y3.391
X32.488 Y3.362
X32.537 Y3.349
X32.588 Y3.358
X32.628 Y3.383
X33.183 Y3.938
X34.341 Y3.938
X34.947 Y3.332
X34.986 Y3.308
X35.041 Y3.298
X35.085 Y3.311
X35.118 Y3.333
X35.723 Y3.938
X36.881 Y3.938
X37.461 Y3.365
X37.514 Y3.349
X37.563 Y3.357
X37.607 Y3.382
X37.637 Y3.425
X37.647 Y3.470
X37.647 Y6.461
X37.829 Y6.900
X38.927 Y7.998
X39.366 Y8.180
X58.967 Y8.180
X59.005 Y8.188
X59.047 Y8.212
X59.165 Y8.331
X59.187 Y8.364
X59.198 Y8.410
X59.198 Y12.036
X59.190 Y12.074
X59.166 Y12.116
X58.774 Y12.507
X58.483 Y13.209
X58.483 Y13.969
X58.774 Y14.671
X59.311 Y15.208
X60.013 Y15.499
X60.773 Y15.499
X61.475 Y15.208
X62.012 Y14.671
X62.303 Y13.969
X62.303 Y13.209
X62.012 Y12.507
X61.621 Y12.116
X61.600 Y12.084
X61.588 Y12.037
X61.588 Y8.665
X61.596 Y8.627
X61.620 Y8.585
X62.139 Y8.067
X62.430 Y7.365
X62.430 Y6.605
X62.139 Y5.903
X61.602 Y5.366
X60.900 Y5.075
X60.140 Y5.075
X59.438 Y5.366
X59.047 Y5.757
X59.015 Y5.779
X58.968 Y5.790
X40.157 Y5.790
X40.112 Y5.780
X40.067 Y5.748
X40.044 Y5.708
X40.037 Y5.669
X40.041 Y3.440
X40.068 Y3.391
X40.108 Y3.362
X40.157 Y3.349
X40.208 Y3.358
X40.248 Y3.383
X40.803 Y3.938
X41.961 Y3.938
X42.780 Y3.119
X42.780 Y1.961
X42.170 Y1.345
X42.154 Y1.291
X42.163 Y1.242
X42.187 Y1.199
X42.230 Y1.169
X42.276 Y1.158
X69.277 Y1.158
X69.322 Y1.169
X69.367 Y1.201
X69.390 Y1.241
X69.397 Y1.280
X69.397 Y51.986
X69.387 Y52.031
X69.355 Y52.076
X69.315 Y52.099
X69.276 Y52.106
X51.465 Y52.101
X51.416 Y52.075
X51.388 Y52.034
X51.374 Y51.986
X51.384 Y51.934
X51.408 Y51.895
X51.924 Y51.379
X51.924 Y50.221
X51.105 Y49.402
X49.947 Y49.402
X49.341 Y50.008
X49.302 Y50.032
X49.247 Y50.042
X49.203 Y50.030
X49.170 Y50.007
X48.565 Y49.402
X47.407 Y49.402
X46.801 Y50.008
X46.762 Y50.032
X46.707 Y50.042
X46.663 Y50.030
X46.630 Y50.007
X46.025 Y49.402
X44.867 Y49.402
X44.010 Y50.260
X43.970 Y50.284
X43.916 Y50.293
X43.871 Y50.281
X43.839 Y50.259
X43.591 Y50.011
X43.591 Y50.213
X43.858 Y50.666
X43.674 Y51.379
X43.108 Y51.712
X43.108 Y51.842
X43.338 Y51.842
X43.840 Y51.341
X43.879 Y51.316
X43.934 Y51.307
X43.978 Y51.319
X44.011 Y51.341
X44.582 Y51.919
X44.598 Y51.973
X44.590 Y52.022
X44.565 Y52.066
X44.522 Y52.095
X44.476 Y52.106
X41.305 Y52.101
X41.257 Y52.075
X41.227 Y52.034
X41.214 Y51.986
X41.224 Y51.934
X41.248 Y51.895
X41.802 Y51.341
X41.842 Y51.316
X41.896 Y51.307
X41.941 Y51.319
X41.973 Y51.341
X42.474 Y51.842
X42.704 Y51.842
X42.704 Y51.665
X42.327 Y51.568
X41.954 Y50.934
X42.138 Y50.221
X42.221 Y50.173
X42.221 Y50.011
X41.973 Y50.260
X41.933 Y50.284
X41.879 Y50.293
X41.834 Y50.281
X41.802 Y50.259
X41.594 Y50.051
X41.573 Y50.018
X41.561 Y49.972
X41.561 Y46.389
X41.569 Y46.351
X41.593 Y46.309
X42.733 Y45.170
X42.765 Y45.149
X42.812 Y45.137
X50.637 Y45.137
X51.076 Y44.955
X51.430 Y44.601
X65.767 Y30.264
X65.799 Y30.242
X65.846 Y30.231
X66.400 Y30.231
X67.102 Y29.940
X67.639 Y29.403
X67.930 Y28.701
X67.930 Y27.941
X67.639 Y27.239
X67.102 Y26.702
X66.400 Y26.411
X65.640 Y26.411
X64.938 Y26.702
X64.401 Y27.239
X64.110 Y27.941
X64.110 Y28.494
X64.102 Y28.533
X64.078 Y28.574
X49.937 Y42.714
X49.905 Y42.736
X49.858 Y42.747
X42.033 Y42.747
X41.594 Y42.929
X39.353 Y45.170
X39.250 Y45.413
X39.208 Y45.450
X39.155 Y45.466
X39.109 Y45.460
X39.067 Y45.438
X39.033 Y45.394
X39.021 Y45.345
X39.021 Y43.976
X39.029 Y43.938
X39.053 Y43.896
X41.590 Y41.360
X41.622 Y41.339
X41.669 Y41.327
X48.947 Y41.327
X49.386 Y41.145
X49.739 Y40.791
X60.267 Y30.264
X60.299 Y30.242
X60.346 Y30.231
X60.900 Y30.231
X61.602 Y29.940
X62.139 Y29.403
X62.430 Y28.701
X62.430 Y27.941
X62.139 Y27.239
X61.602 Y26.702
X60.900 Y26.411
X60.140 Y26.411
X59.438 Y26.702
X58.901 Y27.239
X58.610 Y27.941
X58.610 Y28.494
X58.602 Y28.533
X58.578 Y28.574
X48.247 Y38.904
X48.215 Y38.925
X48.168 Y38.937
X40.890 Y38.937
X40.451 Y39.119
X36.813 Y42.757
X36.631 Y43.196
X36.627 Y49.900
X36.600 Y49.949
X36.560 Y49.978
X36.511 Y49.991
X36.460 Y49.982
X36.420 Y49.957
X35.865 Y49.402
X34.707 Y49.402
X34.127 Y49.976
X34.074 Y49.991
X34.025 Y49.983
X33.981 Y49.958
X33.952 Y49.915
X33.941 Y49.870
X33.941 Y42.071
X33.949 Y42.032
X33.973 Y41.991
X50.353 Y25.612
X50.385 Y25.591
X50.432 Y25.579
X63.591 Y25.579
X64.030 Y25.397
X64.366 Y25.061
X64.548 Y24.622
X64.548 Y23.910
X64.556 Y23.872
X64.580 Y23.830
X65.639 Y22.771
X65.672 Y22.750
X65.719 Y22.738
X66.273 Y22.738
X66.975 Y22.447
X67.512 Y21.910
X67.803 Y21.208
X67.803 Y20.448
X67.512 Y19.746
X66.975 Y19.209
X66.273 Y18.918
X65.513 Y18.918
X64.811 Y19.209
X64.274 Y19.746
X63.983 Y20.448
X63.983 Y21.001
X63.975 Y21.040
X63.951 Y21.081
X62.694 Y22.338
X62.340 Y22.692
X62.153 Y23.138
X62.108 Y23.175
X62.056 Y23.189
X49.653 Y23.189
X49.214 Y23.371
X31.733 Y40.852
X31.630 Y41.095
X31.588 Y41.132
X31.535 Y41.148
X31.489 Y41.142
X31.447 Y41.120
X31.413 Y41.076
X31.401 Y41.027
X31.401 Y33.816
X31.409 Y33.778
X31.433 Y33.736
X43.114 Y22.056
X43.146 Y22.035
X43.193 Y22.023
X58.840 Y22.023
X58.878 Y22.031
X58.919 Y22.055
X59.311 Y22.447
X60.013 Y22.738
X60.773 Y22.738
X61.475 Y22.447
X62.012 Y21.910
X62.303 Y21.208
X62.303 Y20.448
X62.012 Y19.746
X61.475 Y19.209
X60.773 Y18.918
X60.013 Y18.918
X59.311 Y19.209
X58.920 Y19.600
X58.888 Y19.622
X58.841 Y19.633
X42.414 Y19.633
X41.975 Y19.815
X29.066 Y32.724
X28.884 Y33.163
X28.884 Y33.639
X29.005 Y33.930
X29.011 Y33.966
X29.007 Y49.900
X28.980 Y49.949
X28.940 Y49.978
X28.891 Y49.991
X28.840 Y49.982
X28.800 Y49.957
X28.245 Y49.402
X27.087 Y49.402
X26.268 Y50.221
X26.268 Y51.379
X26.802 Y51.919
X26.818 Y51.973
X26.809 Y52.022
X26.785 Y52.066
X26.742 Y52.095
X26.696 Y52.106
X24.541 Y52.101
X24.492 Y52.075
X24.463 Y52.034
X24.450 Y51.986
X24.460 Y51.934
X24.484 Y51.895
X25.000 Y51.379
X25.000 Y50.221
X24.181 Y49.402
X23.023 Y49.402
X22.417 Y50.008
X22.378 Y50.032
X22.323 Y50.042
X22.279 Y50.030
X22.246 Y50.007
X21.641 Y49.402
X20.483 Y49.402
X19.877 Y50.008
X19.838 Y50.032
X19.783 Y50.042
X19.739 Y50.030
X19.706 Y50.007
X19.101 Y49.402
X17.943 Y49.402
X17.337 Y50.008
X17.298 Y50.032
X17.243 Y50.042
X17.199 Y50.030
X17.166 Y50.007
X16.561 Y49.402
X15.403 Y49.402
X14.797 Y50.008
X14.758 Y50.032
X14.703 Y50.042
X14.659 Y50.030
X14.626 Y50.007
X14.021 Y49.402
X12.863 Y49.402
X12.257 Y50.008
X12.218 Y50.032
X12.163 Y50.042
X12.119 Y50.030
X12.086 Y50.007
X11.481 Y49.402
X10.323 Y49.402
X9.717 Y50.008
X9.678 Y50.032
X9.623 Y50.042
X9.579 Y50.030
X9.546 Y50.007
X8.941 Y49.402
X7.783 Y49.402
X7.177 Y50.008
X7.138 Y50.032
X7.083 Y50.042
X7.039 Y50.030
X7.006 Y50.007
X6.401 Y49.402
X5.243 Y49.402
X4.424 Y50.221
X4.424 Y51.379
X4.958 Y51.919
X4.974 Y51.973
X4.966 Y52.022
X4.941 Y52.066
X4.898 Y52.095
X4.852 Y52.106
X0.045 Y52.106
G0 Z3.000
G0  X27.800 Y51.752
G0  Z3.000
G01 F400 Z0
G01 F400 Z-0.100
G01F400X27.087 Y51.568
X26.714 Y50.934
X26.898 Y50.221
X27.532 Y49.848
X28.245 Y50.032
X28.618 Y50.666
X28.434 Y51.379
X27.800 Y51.752
G0 Z3.000
G0  X30.340 Y51.752
G0  Z3.000
G01 F400 Z0
G01 F400 Z-0.100
G01F400X29.627 Y51.568
X29.254 Y50.934
X29.438 Y50.221
X29.521 Y50.173
X29.515 Y33.788
X29.453 Y33.680
X29.409 Y33.544
X29.394 Y33.401
X29.409 Y33.259
X29.453 Y33.122
X29.525 Y32.998
X29.618 Y32.895
X42.195 Y20.318
X42.309 Y20.235
X42.440 Y20.176
X42.580 Y20.146
X59.178 Y20.146
X59.260 Y20.005
X59.456 Y19.787
X59.693 Y19.615
X59.960 Y19.496
X60.247 Y19.435
X60.539 Y19.435
X60.826 Y19.496
X61.093 Y19.615
X61.330 Y19.787
X61.526 Y20.005
X61.672 Y20.259
X61.763 Y20.537
X61.793 Y20.828
X61.763 Y21.119
X61.672 Y21.398
X61.526 Y21.651
X61.330 Y21.869
X61.093 Y22.041
X60.826 Y22.160
X60.539 Y22.221
X60.247 Y22.221
X59.960 Y22.160
X59.693 Y22.041
X59.456 Y21.869
X59.260 Y21.651
X59.178 Y21.510
X42.938 Y21.510
X30.891 Y33.557
X30.891 Y50.213
X31.158 Y50.666
X30.974 Y51.379
X30.340 Y51.752
G0 Z3.000
G0  X21.196 Y51.752
G0  Z3.000
G01 F400 Z0
G01 F400 Z-0.100
G01F400X20.483 Y51.568
X20.110 Y50.934
X20.294 Y50.221
X20.928 Y49.848
X21.641 Y50.032
X22.014 Y50.666
X21.830 Y51.379
X21.196 Y51.752
G0 Z3.000
G0  X23.736 Y51.752
G0  Z3.000
G01 F400 Z0
G01 F400 Z-0.100
G01F400X23.023 Y51.568
X22.650 Y50.934
X22.834 Y50.221
X23.468 Y49.848
X24.181 Y50.032
X24.554 Y50.666
X24.370 Y51.379
X23.736 Y51.752
G0 Z3.000
G0  X37.960 Y51.752
G0  Z3.000
G01 F400 Z0
G01 F400 Z-0.100
G01F400X37.247 Y51.568
X36.874 Y50.934
X37.058 Y50.221
X37.141 Y50.173
X37.141 Y43.431
X37.156 Y43.291
X37.200 Y43.155
X37.272 Y43.031
X37.365 Y42.928
X40.671 Y39.622
X40.785 Y39.538
X40.916 Y39.480
X41.056 Y39.451
X48.423 Y39.451
X59.178 Y28.696
X59.150 Y28.612
X59.120 Y28.321
X59.150 Y28.030
X59.241 Y27.752
X59.387 Y27.498
X59.583 Y27.280
X59.820 Y27.108
X60.087 Y26.989
X60.374 Y26.928
X60.666 Y26.928
X60.953 Y26.989
X61.220 Y27.108
X61.457 Y27.280
X61.653 Y27.498
X61.799 Y27.752
X61.890 Y28.030
X61.920 Y28.321
X61.890 Y28.612
X61.799 Y28.891
X61.653 Y29.144
X61.457 Y29.362
X61.220 Y29.534
X60.953 Y29.653
X60.666 Y29.714
X60.374 Y29.714
X60.144 Y29.665
X49.166 Y40.642
X49.052 Y40.726
X48.921 Y40.784
X48.781 Y40.814
X41.414 Y40.814
X38.511 Y43.717
X38.511 Y50.213
X38.778 Y50.666
X38.594 Y51.379
X37.960 Y51.752
G0 Z3.000
G0  X40.500 Y51.752
G0  Z3.000
G01 F400 Z0
G01 F400 Z-0.100
G01F400X39.787 Y51.568
X39.414 Y50.934
X39.598 Y50.221
X39.681 Y50.173
X39.681 Y45.844
X39.696 Y45.705
X39.740 Y45.568
X39.812 Y45.444
X39.905 Y45.341
X41.814 Y43.432
X41.928 Y43.349
X42.059 Y43.290
X42.199 Y43.261
X50.113 Y43.261
X64.678 Y28.696
X64.650 Y28.612
X64.620 Y28.321
X64.650 Y28.030
X64.741 Y27.752
X64.887 Y27.498
X65.083 Y27.280
X65.320 Y27.108
X65.587 Y26.989
X65.874 Y26.928
X66.166 Y26.928
X66.453 Y26.989
X66.720 Y27.108
X66.957 Y27.280
X67.153 Y27.498
X67.299 Y27.752
X67.390 Y28.030
X67.420 Y28.321
X67.390 Y28.612
X67.299 Y28.891
X67.153 Y29.144
X66.957 Y29.362
X66.720 Y29.534
X66.453 Y29.653
X66.166 Y29.714
X65.874 Y29.714
X65.644 Y29.665
X50.857 Y44.452
X50.742 Y44.535
X50.611 Y44.594
X50.471 Y44.623
X42.557 Y44.623
X41.051 Y46.130
X41.051 Y50.213
X41.318 Y50.666
X41.134 Y51.379
X40.500 Y51.752
G0 Z3.000
G0  X32.880 Y51.752
G0  Z3.000
G01 F400 Z0
G01 F400 Z-0.100
G01F400X32.167 Y51.568
X31.794 Y50.934
X31.978 Y50.221
X32.061 Y50.173
X32.061 Y41.526
X32.076 Y41.387
X32.120 Y41.250
X32.192 Y41.126
X32.285 Y41.023
X49.434 Y23.874
X49.548 Y23.791
X49.679 Y23.732
X49.819 Y23.703
X62.668 Y23.703
X62.668 Y23.365
X62.683 Y23.226
X62.727 Y23.089
X62.799 Y22.965
X62.892 Y22.862
X64.551 Y21.203
X64.523 Y21.119
X64.493 Y20.828
X64.523 Y20.537
X64.614 Y20.259
X64.760 Y20.005
X64.956 Y19.787
X65.193 Y19.615
X65.460 Y19.496
X65.747 Y19.435
X66.039 Y19.435
X66.326 Y19.496
X66.593 Y19.615
X66.830 Y19.787
X67.026 Y20.005
X67.172 Y20.259
X67.263 Y20.537
X67.293 Y20.828
X67.263 Y21.119
X67.172 Y21.398
X67.026 Y21.651
X66.830 Y21.869
X66.593 Y22.041
X66.326 Y22.160
X66.039 Y22.221
X65.747 Y22.221
X65.517 Y22.172
X64.038 Y23.651
X64.038 Y24.387
X64.023 Y24.527
X63.979 Y24.663
X63.907 Y24.787
X63.812 Y24.893
X63.696 Y24.978
X63.565 Y25.036
X63.425 Y25.066
X50.177 Y25.066
X33.431 Y41.812
X33.431 Y50.213
X33.698 Y50.666
X33.514 Y51.379
X32.880 Y51.752
G0 Z3.000
G0  X35.420 Y51.752
G0  Z3.000
G01 F400 Z0
G01 F400 Z-0.100
G01F400X34.707 Y51.568
X34.334 Y50.934
X34.518 Y50.221
X35.152 Y49.848
X35.865 Y50.032
X36.238 Y50.666
X36.054 Y51.379
X35.420 Y51.752
G0 Z3.000
G0  X13.576 Y51.752
G0  Z3.000
G01 F400 Z0
G01 F400 Z-0.100
G01F400X12.863 Y51.568
X12.490 Y50.934
X12.674 Y50.221
X13.308 Y49.848
X14.021 Y50.032
X14.394 Y50.666
X14.210 Y51.379
X13.576 Y51.752
G0 Z3.000
G0  X16.116 Y51.752
G0  Z3.000
G01 F400 Z0
G01 F400 Z-0.100
G01F400X15.403 Y51.568
X15.030 Y50.934
X15.214 Y50.221
X15.848 Y49.848
X16.561 Y50.032
X16.934 Y50.666
X16.750 Y51.379
X16.116 Y51.752
G0 Z3.000
G0  X5.956 Y51.752
G0  Z3.000
G01 F400 Z0
G01 F400 Z-0.100
G01F400X5.243 Y51.568
X4.870 Y50.934
X5.054 Y50.221
X5.688 Y49.848
X6.401 Y50.032
X6.774 Y50.666
X6.590 Y51.379
X5.956 Y51.752
G0 Z3.000
G0  X18.656 Y51.752
G0  Z3.000
G01 F400 Z0
G01 F400 Z-0.100
G01F400X17.943 Y51.568
X17.570 Y50.934
X17.754 Y50.221
X18.388 Y49.848
X19.101 Y50.032
X19.474 Y50.666
X19.290 Y51.379
X18.656 Y51.752
G0 Z3.000
G0  X11.036 Y51.752
G0  Z3.000
G01 F400 Z0
G01 F400 Z-0.100
G01F400X10.323 Y51.568
X9.950 Y50.934
X10.134 Y50.221
X10.768 Y49.848
X11.481 Y50.032
X11.854 Y50.666
X11.670 Y51.379
X11.036 Y51.752
G0 Z3.000
G0  X8.496 Y51.752
G0  Z3.000
G01 F400 Z0
G01 F400 Z-0.100
G01F400X7.783 Y51.568
X7.410 Y50.934
X7.594 Y50.221
X8.228 Y49.848
X8.941 Y50.032
X9.314 Y50.666
X9.130 Y51.379
X8.496 Y51.752
G0 Z3.000
G0  X50.660 Y51.752
G0  Z3.000
G01 F400 Z0
G01 F400 Z-0.100
G01F400X49.947 Y51.568
X49.574 Y50.934
X49.758 Y50.221
X50.392 Y49.848
X51.105 Y50.032
X51.478 Y50.666
X51.294 Y51.379
X50.660 Y51.752
G0 Z3.000
G0  X48.120 Y51.752
G0  Z3.000
G01 F400 Z0
G01 F400 Z-0.100
G01F400X47.407 Y51.568
X47.034 Y50.934
X47.218 Y50.221
X47.852 Y49.848
X48.565 Y50.032
X48.938 Y50.666
X48.754 Y51.379
X48.120 Y51.752
G0 Z3.000
G0  X45.580 Y51.752
G0  Z3.000
G01 F400 Z0
G01 F400 Z-0.100
G01F400X44.867 Y51.568
X44.494 Y50.934
X44.678 Y50.221
X45.312 Y49.848
X46.025 Y50.032
X46.398 Y50.666
X46.214 Y51.379
X45.580 Y51.752
G0 Z3.000
G0  X6.258 Y43.735
G0  Z3.000
G01 F400 Z0
G01 F400 Z-0.100
G01F400X6.118 Y43.705
X5.987 Y43.647
X5.872 Y43.562
X5.776 Y43.456
X5.704 Y43.332
X5.660 Y43.196
X5.645 Y43.056
X5.645 Y25.524
X5.660 Y25.385
X5.704 Y25.248
X5.776 Y25.124
X5.872 Y25.018
X5.987 Y24.934
X6.118 Y24.875
X6.258 Y24.846
X11.736 Y24.846
X11.876 Y24.875
X12.007 Y24.934
X12.123 Y25.018
X12.218 Y25.124
X12.290 Y25.248
X12.334 Y25.385
X12.349 Y25.524
X12.349 Y33.608
X12.902 Y33.608
X18.472 Y28.038
X18.472 Y21.111
X16.839 Y19.478
X11.719 Y19.478
X11.579 Y19.448
X11.448 Y19.390
X11.334 Y19.306
X10.822 Y18.794
X10.729 Y18.691
X10.657 Y18.567
X10.613 Y18.431
X10.598 Y18.291
X10.598 Y15.904
X8.457 Y13.763
X8.036 Y13.763
X7.896 Y13.733
X7.780 Y13.681
X7.654 Y13.681
X7.636 Y13.576
X7.554 Y13.484
X7.482 Y13.360
X7.438 Y13.224
X7.423 Y13.081
X7.438 Y12.939
X7.482 Y12.802
X7.554 Y12.678
X7.646 Y12.580
X7.646 Y12.481
X7.780 Y12.481
X7.896 Y12.429
X8.036 Y12.399
X8.815 Y12.399
X8.955 Y12.429
X9.086 Y12.488
X9.200 Y12.571
X11.744 Y15.115
X11.837 Y15.218
X11.909 Y15.342
X11.953 Y15.479
X11.968 Y15.618
X11.968 Y18.005
X12.077 Y18.114
X17.197 Y18.114
X17.337 Y18.144
X17.468 Y18.203
X17.582 Y18.286
X19.618 Y20.322
X19.711 Y20.425
X19.783 Y20.549
X19.827 Y20.686
X19.842 Y20.825
X19.842 Y28.324
X19.827 Y28.463
X19.783 Y28.600
X19.711 Y28.724
X19.618 Y28.827
X13.646 Y34.800
X13.531 Y34.884
X13.400 Y34.942
X13.260 Y34.971
X11.592 Y34.971
X11.452 Y34.942
X11.321 Y34.884
X11.206 Y34.799
X11.110 Y34.693
X11.038 Y34.569
X10.994 Y34.433
X10.979 Y34.293
X10.979 Y26.209
X7.015 Y26.209
X7.015 Y42.372
X13.918 Y42.372
X30.537 Y25.752
X30.537 Y7.921
X22.382 Y7.921
X22.382 Y13.592
X22.367 Y13.732
X22.323 Y13.868
X22.251 Y13.992
X22.155 Y14.098
X22.040 Y14.183
X21.909 Y14.241
X21.769 Y14.271
X15.998 Y14.271
X15.858 Y14.241
X15.742 Y14.189
X15.524 Y14.189
X15.507 Y13.977
X15.444 Y13.868
X15.400 Y13.732
X15.385 Y13.589
X15.400 Y13.447
X15.444 Y13.310
X15.520 Y13.186
X15.520 Y12.989
X15.742 Y12.989
X15.858 Y12.937
X15.998 Y12.908
X21.012 Y12.908
X21.012 Y7.363
X21.027 Y7.224
X21.071 Y7.087
X21.143 Y6.963
X21.236 Y6.860
X21.367 Y6.729
X21.481 Y6.646
X21.612 Y6.587
X21.752 Y6.558
X30.537 Y6.558
X30.537 Y3.127
X30.270 Y2.674
X30.454 Y1.961
X31.088 Y1.588
X31.801 Y1.772
X32.174 Y2.406
X31.990 Y3.119
X31.907 Y3.167
X31.907 Y26.038
X31.892 Y26.178
X31.848 Y26.314
X31.776 Y26.438
X31.683 Y26.541
X14.662 Y43.563
X14.547 Y43.647
X14.416 Y43.705
X14.276 Y43.735
X6.258 Y43.735
G0 Z3.000
G0  X8.925 Y39.416
G0  Z3.000
G01 F400 Z0
G01 F400 Z-0.100
G01F400X8.785 Y39.387
X8.654 Y39.329
X8.539 Y39.244
X8.443 Y39.138
X8.371 Y39.014
X8.327 Y38.878
X8.312 Y38.738
X8.312 Y29.667
X8.297 Y29.661
X8.060 Y29.489
X7.864 Y29.271
X7.718 Y29.018
X7.627 Y28.739
X7.597 Y28.448
X7.627 Y28.157
X7.718 Y27.879
X7.864 Y27.625
X8.060 Y27.407
X8.297 Y27.235
X8.564 Y27.116
X8.851 Y27.055
X9.143 Y27.055
X9.430 Y27.116
X9.697 Y27.235
X9.934 Y27.407
X10.130 Y27.625
X10.276 Y27.879
X10.367 Y28.157
X10.397 Y28.448
X10.367 Y28.739
X10.276 Y29.018
X10.130 Y29.271
X9.934 Y29.489
X9.697 Y29.661
X9.682 Y29.667
X9.682 Y38.053
X12.394 Y38.053
X21.774 Y28.673
X21.774 Y18.952
X20.014 Y17.192
X15.998 Y17.192
X15.858 Y17.162
X15.742 Y17.110
X15.524 Y17.110
X15.507 Y16.898
X15.444 Y16.789
X15.400 Y16.652
X15.385 Y16.510
X15.400 Y16.367
X15.444 Y16.231
X15.520 Y16.107
X15.520 Y15.910
X15.742 Y15.910
X15.858 Y15.858
X15.998 Y15.829
X20.372 Y15.829
X20.512 Y15.858
X20.643 Y15.917
X20.758 Y16.000
X22.920 Y18.163
X23.013 Y18.266
X23.085 Y18.390
X23.129 Y18.527
X23.144 Y18.666
X23.144 Y28.959
X23.129 Y29.099
X23.085 Y29.235
X23.013 Y29.359
X22.920 Y29.462
X13.138 Y39.245
X13.023 Y39.329
X12.892 Y39.387
X12.752 Y39.416
X8.925 Y39.416
G0 Z3.000
G0  X14.699 Y29.989
G0  Z3.000
G01 F400 Z0
G01 F400 Z-0.100
G01F400X14.801 Y29.975
X14.998 Y29.923
X15.186 Y29.845
X15.362 Y29.743
X15.524 Y29.619
X15.668 Y29.475
X15.792 Y29.313
X15.894 Y29.137
X15.972 Y28.949
X16.024 Y28.752
X16.038 Y28.650
X15.876 Y28.650
X15.867 Y28.739
X15.776 Y29.018
X15.630 Y29.271
X15.434 Y29.489
X15.197 Y29.661
X14.930 Y29.780
X14.699 Y29.829
X14.699 Y29.989
G0 Z3.000
G0  X15.876 Y28.246
G0  Z3.000
G01 F400 Z0
G01 F400 Z-0.100
G01F400X16.038 Y28.246
X16.024 Y28.144
X15.972 Y27.947
X15.894 Y27.759
X15.792 Y27.583
X15.668 Y27.422
X15.524 Y27.277
X15.362 Y27.153
X15.186 Y27.051
X15.182 Y27.050
X15.182 Y27.229
X15.197 Y27.235
X15.434 Y27.407
X15.630 Y27.625
X15.776 Y27.879
X15.867 Y28.157
X15.876 Y28.246
G0 Z3.000
G0  X15.182 Y23.040
G0  Z3.000
G01 F400 Z0
G01 F400 Z-0.100
G01F400X15.313 Y22.987
X15.489 Y22.885
X15.651 Y22.761
X15.795 Y22.617
X15.919 Y22.455
X16.021 Y22.279
X16.099 Y22.091
X16.151 Y21.894
X16.165 Y21.792
X16.003 Y21.792
X15.994 Y21.881
X15.903 Y22.160
X15.757 Y22.413
X15.561 Y22.631
X15.324 Y22.803
X15.182 Y22.866
X15.182 Y23.040
G0 Z3.000
G0  X8.978 Y22.983
G0  Z3.000
G01 F400 Z0
G01 F400 Z-0.100
G01F400X8.691 Y22.922
X8.424 Y22.803
X8.187 Y22.631
X7.991 Y22.413
X7.845 Y22.160
X7.754 Y21.881
X7.724 Y21.590
X7.754 Y21.299
X7.782 Y21.215
X7.608 Y21.041
X7.515 Y20.938
X7.443 Y20.814
X7.399 Y20.678
X7.384 Y20.538
X7.384 Y16.380
X7.399 Y16.241
X7.443 Y16.104
X7.519 Y15.980
X7.519 Y15.783
X7.741 Y15.783
X7.857 Y15.731
X7.997 Y15.702
X8.141 Y15.702
X8.281 Y15.731
X8.397 Y15.783
X8.615 Y15.783
X8.632 Y15.995
X8.695 Y16.104
X8.739 Y16.241
X8.754 Y16.380
X8.754 Y20.245
X8.978 Y20.197
X9.270 Y20.197
X9.557 Y20.258
X9.824 Y20.377
X10.061 Y20.549
X10.257 Y20.767
X10.403 Y21.021
X10.494 Y21.299
X10.524 Y21.590
X10.494 Y21.881
X10.403 Y22.160
X10.257 Y22.413
X10.061 Y22.631
X9.824 Y22.803
X9.557 Y22.922
X9.270 Y22.983
X8.978 Y22.983
G0 Z3.000
G0  X13.812 Y22.916
G0  Z3.000
G01 F400 Z0
G01 F400 Z-0.100
G01F400X13.812 Y22.721
X13.687 Y22.631
X13.491 Y22.413
X13.345 Y22.160
X13.254 Y21.881
X13.245 Y21.792
X13.083 Y21.792
X13.097 Y21.894
X13.149 Y22.091
X13.227 Y22.279
X13.329 Y22.455
X13.453 Y22.617
X13.598 Y22.761
X13.759 Y22.885
X13.812 Y22.916
G0 Z3.000
G0  X14.298 Y17.192
G0  Z3.000
G01 F400 Z0
G01 F400 Z-0.100
G01F400X14.158 Y17.162
X14.042 Y17.110
X13.824 Y17.110
X13.807 Y16.898
X13.744 Y16.789
X13.700 Y16.652
X13.685 Y16.513
X13.685 Y7.070
X13.700 Y6.931
X13.744 Y6.794
X13.816 Y6.670
X13.909 Y6.567
X14.509 Y5.967
X14.623 Y5.884
X14.754 Y5.825
X14.894 Y5.796
X17.837 Y5.796
X17.837 Y3.127
X17.570 Y2.674
X17.754 Y1.961
X18.388 Y1.588
X19.101 Y1.772
X19.474 Y2.406
X19.290 Y3.119
X19.207 Y3.167
X19.207 Y6.480
X19.192 Y6.620
X19.148 Y6.756
X19.076 Y6.880
X18.980 Y6.986
X18.865 Y7.071
X18.734 Y7.129
X18.594 Y7.159
X15.252 Y7.159
X15.055 Y7.356
X15.055 Y16.513
X15.040 Y16.652
X14.996 Y16.789
X14.920 Y16.913
X14.920 Y17.110
X14.698 Y17.110
X14.582 Y17.162
X14.442 Y17.192
X14.298 Y17.192
G0 Z3.000
G0  X5.135 Y17.065
G0  Z3.000
G01 F400 Z0
G01 F400 Z-0.100
G01F400X4.995 Y17.035
X4.864 Y16.977
X4.748 Y16.892
X4.653 Y16.786
X4.581 Y16.662
X4.537 Y16.526
X4.522 Y16.386
X4.522 Y12.951
X4.537 Y12.812
X4.581 Y12.675
X4.653 Y12.551
X4.748 Y12.445
X4.864 Y12.361
X4.995 Y12.302
X5.135 Y12.273
X5.175 Y12.273
X7.257 Y10.190
X7.257 Y8.760
X7.272 Y8.620
X7.316 Y8.484
X7.342 Y8.439
X7.342 Y8.213
X7.540 Y8.213
X7.599 Y8.170
X7.730 Y8.111
X7.870 Y8.082
X8.457 Y8.082
X12.604 Y3.935
X12.718 Y3.852
X12.849 Y3.793
X12.989 Y3.764
X15.297 Y3.764
X15.297 Y3.127
X15.030 Y2.674
X15.214 Y1.961
X15.848 Y1.588
X16.561 Y1.772
X16.934 Y2.406
X16.750 Y3.119
X16.667 Y3.167
X16.667 Y4.448
X16.652 Y4.588
X16.608 Y4.724
X16.536 Y4.848
X16.441 Y4.954
X16.325 Y5.038
X16.194 Y5.097
X16.054 Y5.127
X13.347 Y5.127
X9.200 Y9.273
X9.086 Y9.357
X8.955 Y9.415
X8.815 Y9.444
X8.627 Y9.444
X8.627 Y10.476
X8.612 Y10.616
X8.568 Y10.752
X8.496 Y10.876
X8.403 Y10.979
X6.933 Y12.481
X7.042 Y12.481
X7.059 Y12.693
X7.122 Y12.802
X7.166 Y12.939
X7.181 Y13.081
X7.166 Y13.224
X7.122 Y13.360
X7.046 Y13.484
X7.046 Y13.681
X6.824 Y13.681
X6.708 Y13.733
X6.568 Y13.763
X5.892 Y13.763
X5.892 Y15.702
X6.441 Y15.702
X6.581 Y15.731
X6.697 Y15.783
X6.915 Y15.783
X6.932 Y15.995
X6.995 Y16.104
X7.039 Y16.241
X7.054 Y16.383
X7.039 Y16.526
X6.995 Y16.662
X6.919 Y16.786
X6.919 Y16.983
X6.697 Y16.983
X6.581 Y17.035
X6.441 Y17.065
X5.135 Y17.065
G0 Z3.000
G0  X65.691 Y15.130
G0  Z3.000
G01 F400 Z0
G01 F400 Z-0.100
G01F400X65.691 Y14.970
X65.460 Y14.921
X65.193 Y14.802
X64.956 Y14.630
X64.760 Y14.412
X64.614 Y14.159
X64.523 Y13.880
X64.514 Y13.791
X64.352 Y13.791
X64.366 Y13.893
X64.418 Y14.090
X64.496 Y14.278
X64.598 Y14.454
X64.722 Y14.616
X64.867 Y14.760
X65.028 Y14.884
X65.204 Y14.986
X65.392 Y15.064
X65.589 Y15.116
X65.691 Y15.130
G0 Z3.000
G0  X66.095 Y15.130
G0  Z3.000
G01 F400 Z0
G01 F400 Z-0.100
G01F400X66.197 Y15.116
X66.394 Y15.064
X66.582 Y14.986
X66.758 Y14.884
X66.919 Y14.760
X67.064 Y14.616
X67.188 Y14.454
X67.290 Y14.278
X67.368 Y14.090
X67.420 Y13.893
X67.434 Y13.791
X67.272 Y13.791
X67.263 Y13.880
X67.172 Y14.159
X67.026 Y14.412
X66.830 Y14.630
X66.593 Y14.802
X66.326 Y14.921
X66.095 Y14.970
X66.095 Y15.130
G0 Z3.000
G0  X60.247 Y14.982
G0  Z3.000
G01 F400 Z0
G01 F400 Z-0.100
G01F400X59.960 Y14.921
X59.693 Y14.802
X59.456 Y14.630
X59.260 Y14.412
X59.114 Y14.159
X59.023 Y13.880
X58.993 Y13.589
X59.023 Y13.298
X59.114 Y13.020
X59.260 Y12.766
X59.456 Y12.548
X59.693 Y12.376
X59.708 Y12.370
X59.708 Y8.116
X59.583 Y8.026
X59.387 Y7.808
X59.305 Y7.667
X39.532 Y7.667
X39.392 Y7.637
X39.261 Y7.579
X39.147 Y7.495
X38.381 Y6.729
X38.288 Y6.626
X38.216 Y6.502
X38.172 Y6.365
X38.157 Y6.226
X38.157 Y3.127
X37.890 Y2.674
X38.074 Y1.961
X38.708 Y1.588
X39.421 Y1.772
X39.794 Y2.406
X39.610 Y3.119
X39.527 Y3.167
X39.527 Y5.940
X39.890 Y6.304
X59.305 Y6.304
X59.387 Y6.162
X59.583 Y5.944
X59.820 Y5.772
X60.087 Y5.653
X60.374 Y5.592
X60.666 Y5.592
X60.953 Y5.653
X61.220 Y5.772
X61.457 Y5.944
X61.653 Y6.162
X61.799 Y6.416
X61.890 Y6.694
X61.920 Y6.985
X61.890 Y7.276
X61.799 Y7.554
X61.653 Y7.808
X61.457 Y8.026
X61.220 Y8.198
X61.078 Y8.261
X61.078 Y12.370
X61.093 Y12.376
X61.330 Y12.548
X61.526 Y12.766
X61.672 Y13.020
X61.763 Y13.298
X61.793 Y13.589
X61.763 Y13.880
X61.672 Y14.159
X61.526 Y14.412
X61.330 Y14.630
X61.093 Y14.802
X60.826 Y14.921
X60.539 Y14.982
X60.247 Y14.982
G0 Z3.000
G0  X67.272 Y13.387
G0  Z3.000
G01 F400 Z0
G01 F400 Z-0.100
G01F400X67.434 Y13.387
X67.420 Y13.285
X67.368 Y13.088
X67.290 Y12.900
X67.188 Y12.724
X67.064 Y12.563
X66.919 Y12.418
X66.758 Y12.294
X66.582 Y12.192
X66.578 Y12.191
X66.578 Y12.370
X66.593 Y12.376
X66.830 Y12.548
X67.026 Y12.766
X67.172 Y13.020
X67.263 Y13.298
X67.272 Y13.387
G0 Z3.000
G0  X64.352 Y13.387
G0  Z3.000
G01 F400 Z0
G01 F400 Z-0.100
G01F400X64.514 Y13.387
X64.523 Y13.298
X64.614 Y13.020
X64.760 Y12.766
X64.956 Y12.548
X65.193 Y12.376
X65.208 Y12.370
X65.208 Y12.191
X65.204 Y12.192
X65.028 Y12.294
X64.867 Y12.418
X64.722 Y12.563
X64.598 Y12.724
X64.496 Y12.900
X64.418 Y13.088
X64.366 Y13.285
X64.352 Y13.387
G0 Z3.000
G0  X15.696 Y12.444
G0  Z3.000
G01 F400 Z0
G01 F400 Z-0.100
G01F400X15.645 Y12.434
X15.600 Y12.406
X15.574 Y12.364
X15.565 Y12.322
X15.569 Y11.726
X15.516 Y11.667
X15.444 Y11.543
X15.400 Y11.407
X15.385 Y11.267
X15.385 Y9.688
X15.400 Y9.549
X15.444 Y9.412
X15.516 Y9.288
X15.609 Y9.185
X15.779 Y9.015
X15.893 Y8.931
X16.024 Y8.873
X16.164 Y8.844
X16.404 Y8.844
X16.472 Y8.681
X16.472 Y8.147
X16.406 Y7.994
X16.398 Y7.955
X16.405 Y7.907
X16.483 Y7.723
X16.529 Y7.686
X16.580 Y7.672
X18.760 Y7.672
X19.199 Y7.490
X19.535 Y7.154
X19.717 Y6.715
X19.717 Y3.369
X19.725 Y3.331
X19.749 Y3.290
X19.920 Y3.119
X19.920 Y1.961
X19.384 Y1.419
X19.368 Y1.366
X19.376 Y1.316
X19.400 Y1.272
X19.443 Y1.243
X19.488 Y1.232
X22.699 Y1.202
X22.748 Y1.228
X22.777 Y1.268
X22.791 Y1.316
X22.781 Y1.368
X22.757 Y1.408
X22.204 Y1.961
X22.204 Y3.119
X23.023 Y3.938
X24.181 Y3.938
X24.787 Y3.332
X24.826 Y3.308
X24.881 Y3.298
X24.925 Y3.311
X24.958 Y3.333
X25.459 Y3.834
X25.482 Y3.866
X25.492 Y3.917
X25.483 Y3.969
X25.454 Y4.009
X25.419 Y4.034
X25.338 Y4.067
X25.002 Y4.403
X24.820 Y4.842
X24.820 Y5.318
X25.003 Y5.758
X25.097 Y5.859
X25.113 Y5.911
X25.104 Y5.960
X25.080 Y6.004
X25.037 Y6.034
X24.991 Y6.044
X21.586 Y6.044
X21.147 Y6.226
X20.684 Y6.689
X20.502 Y7.128
X20.502 Y12.274
X20.492 Y12.319
X20.460 Y12.364
X20.419 Y12.387
X20.381 Y12.394
X15.832 Y12.394
X15.734 Y12.435
X15.696 Y12.444
G0 Z3.000
G0  X17.048 Y11.405
G0  Z3.000
G01 F400 Z0
G01 F400 Z-0.100
G01F400X17.095 Y11.358
X17.151 Y11.223
X17.048 Y11.223
X17.048 Y11.405
G0 Z3.000
G0  X66.578 Y8.435
G0  Z3.000
G01 F400 Z0
G01 F400 Z-0.100
G01F400X66.709 Y8.382
X66.885 Y8.280
X67.047 Y8.156
X67.191 Y8.011
X67.315 Y7.850
X67.417 Y7.674
X67.495 Y7.486
X67.547 Y7.289
X67.561 Y7.187
X67.399 Y7.187
X67.390 Y7.276
X67.299 Y7.554
X67.153 Y7.808
X66.957 Y8.026
X66.720 Y8.198
X66.578 Y8.261
X66.578 Y8.435
G0 Z3.000
G0  X65.208 Y8.311
G0  Z3.000
G01 F400 Z0
G01 F400 Z-0.100
G01F400X65.208 Y8.116
X65.083 Y8.026
X64.887 Y7.808
X64.741 Y7.554
X64.650 Y7.276
X64.641 Y7.187
X64.479 Y7.187
X64.493 Y7.289
X64.545 Y7.486
X64.623 Y7.674
X64.725 Y7.850
X64.849 Y8.011
X64.993 Y8.156
X65.155 Y8.280
X65.208 Y8.311
G0 Z3.000
G0  X67.399 Y6.783
G0  Z3.000
G01 F400 Z0
G01 F400 Z-0.100
G01F400X67.561 Y6.783
X67.547 Y6.681
X67.495 Y6.484
X67.417 Y6.296
X67.315 Y6.120
X67.191 Y5.958
X67.047 Y5.814
X66.885 Y5.690
X66.709 Y5.588
X66.521 Y5.510
X66.324 Y5.458
X66.222 Y5.444
X66.222 Y5.604
X66.453 Y5.653
X66.720 Y5.772
X66.957 Y5.944
X67.153 Y6.162
X67.299 Y6.416
X67.390 Y6.694
X67.399 Y6.783
G0 Z3.000
G0  X64.479 Y6.783
G0  Z3.000
G01 F400 Z0
G01 F400 Z-0.100
G01F400X64.641 Y6.783
X64.650 Y6.694
X64.741 Y6.416
X64.887 Y6.162
X65.083 Y5.944
X65.320 Y5.772
X65.587 Y5.653
X65.818 Y5.604
X65.818 Y5.444
X65.716 Y5.458
X65.519 Y5.510
X65.331 Y5.588
X65.155 Y5.690
X64.993 Y5.814
X64.849 Y5.958
X64.725 Y6.120
X64.623 Y6.296
X64.545 Y6.484
X64.493 Y6.681
X64.479 Y6.783
G0 Z3.000
G0  X25.943 Y5.761
G0  Z3.000
G01 F400 Z0
G01 F400 Z-0.100
G01F400X25.803 Y5.732
X25.672 Y5.674
X25.556 Y5.589
X25.461 Y5.483
X25.389 Y5.359
X25.345 Y5.223
X25.330 Y5.080
X25.345 Y4.938
X25.389 Y4.801
X25.461 Y4.677
X25.556 Y4.571
X25.672 Y4.487
X25.803 Y4.428
X25.943 Y4.399
X27.997 Y4.399
X27.997 Y3.127
X27.730 Y2.674
X27.914 Y1.961
X28.548 Y1.588
X29.261 Y1.772
X29.634 Y2.406
X29.450 Y3.119
X29.367 Y3.167
X29.367 Y4.829
X29.352 Y4.969
X29.308 Y5.105
X29.236 Y5.229
X29.143 Y5.332
X28.886 Y5.590
X28.771 Y5.674
X28.640 Y5.732
X28.500 Y5.761
X25.943 Y5.761
G0 Z3.000
G0  X41.516 Y3.492
G0  Z3.000
G01 F400 Z0
G01 F400 Z-0.100
G01F400X40.803 Y3.308
X40.430 Y2.674
X40.614 Y1.961
X41.248 Y1.588
X41.961 Y1.772
X42.334 Y2.406
X42.150 Y3.119
X41.516 Y3.492
G0 Z3.000
G0  X33.896 Y3.492
G0  Z3.000
G01 F400 Z0
G01 F400 Z-0.100
G01F400X33.183 Y3.308
X32.810 Y2.674
X32.994 Y1.961
X33.628 Y1.588
X34.341 Y1.772
X34.714 Y2.406
X34.530 Y3.119
X33.896 Y3.492
G0 Z3.000
G0  X26.276 Y3.492
G0  Z3.000
G01 F400 Z0
G01 F400 Z-0.100
G01F400X25.563 Y3.308
X25.190 Y2.674
X25.374 Y1.961
X26.008 Y1.588
X26.721 Y1.772
X27.094 Y2.406
X26.910 Y3.119
X26.276 Y3.492
G0 Z3.000
G0  X36.436 Y3.492
G0  Z3.000
G01 F400 Z0
G01 F400 Z-0.100
G01F400X35.723 Y3.308
X35.350 Y2.674
X35.534 Y1.961
X36.168 Y1.588
X36.881 Y1.772
X37.254 Y2.406
X37.070 Y3.119
X36.436 Y3.492
G0 Z3.000
G0  X13.576 Y3.492
G0  Z3.000
G01 F400 Z0
G01 F400 Z-0.100
G01F400X12.863 Y3.308
X12.490 Y2.674
X12.674 Y1.961
X13.308 Y1.588
X14.021 Y1.772
X14.394 Y2.406
X14.210 Y3.119
X13.576 Y3.492
G0 Z3.000
G0  X5.956 Y3.492
G0  Z3.000
G01 F400 Z0
G01 F400 Z-0.100
G01F400X5.243 Y3.308
X4.870 Y2.674
X5.054 Y1.961
X5.688 Y1.588
X6.401 Y1.772
X6.774 Y2.406
X6.590 Y3.119
X5.956 Y3.492
G0 Z3.000
G0  X23.736 Y3.492
G0  Z3.000
G01 F400 Z0
G01 F400 Z-0.100
G01F400X23.023 Y3.308
X22.650 Y2.674
X22.834 Y1.961
X23.468 Y1.588
X24.181 Y1.772
X24.554 Y2.406
X24.370 Y3.119
X23.736 Y3.492
G0 Z3.000
G0  X11.036 Y3.492
G0  Z3.000
G01 F400 Z0
G01 F400 Z-0.100
G01F400X10.323 Y3.308
X9.950 Y2.674
X10.134 Y1.961
X10.768 Y1.588
X11.481 Y1.772
X11.854 Y2.406
X11.670 Y3.119
X11.036 Y3.492
G0 Z3.000
G0  X8.496 Y3.492
G0  Z3.000
G01 F400 Z0
G01 F400 Z-0.100
G01F400X7.783 Y3.308
X7.410 Y2.674
X7.594 Y1.961
X8.228 Y1.588
X8.941 Y1.772
X9.314 Y2.406
X9.130 Y3.119
X8.496 Y3.492
G0 Z3.000
G0  X0.034 Y52.196
G0  Z3.000
G01 F400 Z0
G01 F400 Z-0.100
G01F400X-0.038 Y52.179
X-0.114 Y52.125
X-0.154 Y52.054
X-0.165 Y51.993
X-0.161 Y30.409
X-0.113 Y30.322
X-0.043 Y30.271
X0.041 Y30.248
X0.129 Y30.265
X0.192 Y30.303
X0.238 Y30.350
X0.780 Y30.662
X1.384 Y30.824
X2.010 Y30.824
X2.614 Y30.662
X3.156 Y30.350
X3.599 Y29.907
X3.911 Y29.365
X4.073 Y28.761
X4.073 Y28.135
X3.911 Y27.531
X3.599 Y26.989
X3.156 Y26.547
X2.614 Y26.234
X2.010 Y26.072
X1.384 Y26.072
X0.780 Y26.234
X0.235 Y26.548
X0.155 Y26.621
X0.063 Y26.648
X-0.022 Y26.633
X-0.097 Y26.591
X-0.148 Y26.517
X-0.165 Y26.445
X-0.161 Y23.424
X-0.113 Y23.337
X-0.043 Y23.286
X0.041 Y23.263
X0.129 Y23.280
X0.192 Y23.318
X0.365 Y23.492
X0.907 Y23.804
X1.511 Y23.966
X2.137 Y23.966
X2.741 Y23.804
X3.283 Y23.492
X3.726 Y23.049
X4.038 Y22.507
X4.200 Y21.903
X4.200 Y21.277
X4.038 Y20.673
X3.726 Y20.131
X3.283 Y19.689
X2.741 Y19.376
X2.137 Y19.214
X1.511 Y19.214
X0.907 Y19.376
X0.364 Y19.689
X0.158 Y19.889
X0.063 Y19.917
X-0.022 Y19.902
X-0.097 Y19.860
X-0.148 Y19.786
X-0.165 Y19.714
X-0.165 Y1.551
X-0.148 Y1.480
X-0.095 Y1.403
X-0.025 Y1.363
X0.036 Y1.351
X4.747 Y1.305
X4.835 Y1.353
X4.885 Y1.423
X4.909 Y1.505
X4.893 Y1.595
X4.854 Y1.658
X4.514 Y1.998
X4.514 Y3.082
X5.280 Y3.848
X6.364 Y3.848
X6.951 Y3.261
X7.014 Y3.222
X7.105 Y3.206
X7.184 Y3.228
X7.236 Y3.263
X7.820 Y3.848
X8.904 Y3.848
X9.491 Y3.261
X9.554 Y3.222
X9.645 Y3.206
X9.724 Y3.228
X9.776 Y3.263
X10.360 Y3.848
X11.444 Y3.848
X12.031 Y3.261
X12.094 Y3.222
X12.185 Y3.206
X12.264 Y3.228
X12.316 Y3.263
X12.357 Y3.305
X12.396 Y3.368
X12.412 Y3.459
X12.390 Y3.537
X12.355 Y3.589
X12.094 Y3.850
X8.339 Y7.605
X8.286 Y7.640
X8.213 Y7.658
X7.722 Y7.658
X7.314 Y7.828
X7.275 Y7.863
X7.182 Y7.892
X7.098 Y7.881
X6.886 Y7.793
X5.599 Y7.793
X5.426 Y7.865
X5.299 Y7.992
X6.323 Y7.992
X6.482 Y8.025
X6.630 Y8.091
X6.674 Y8.123
X6.932 Y8.123
X6.932 Y8.415
X6.951 Y8.447
X7.001 Y8.602
X7.018 Y8.763
X7.001 Y8.924
X6.951 Y9.079
X6.932 Y9.111
X6.932 Y9.403
X6.674 Y9.403
X6.630 Y9.435
X6.482 Y9.501
X6.323 Y9.535
X5.299 Y9.535
X5.426 Y9.661
X5.599 Y9.733
X6.657 Y9.737
X6.745 Y9.785
X6.795 Y9.855
X6.818 Y9.939
X6.802 Y10.027
X6.763 Y10.090
X5.033 Y11.820
X4.987 Y11.849
X4.581 Y12.018
X4.270 Y12.328
X4.102 Y12.734
X4.102 Y13.874
X4.091 Y13.927
X4.076 Y13.963
X4.076 Y15.501
X4.092 Y15.542
X4.102 Y15.595
X4.102 Y16.603
X4.270 Y17.009
X4.581 Y17.320
X4.987 Y17.488
X6.589 Y17.488
X6.677 Y17.451
X6.742 Y17.437
X6.828 Y17.453
X6.905 Y17.501
X6.950 Y17.574
X6.964 Y17.641
X6.964 Y20.755
X7.132 Y21.161
X7.251 Y21.280
X7.286 Y21.333
X7.304 Y21.405
X7.304 Y21.952
X7.581 Y22.621
X8.093 Y23.133
X8.762 Y23.410
X9.486 Y23.410
X10.155 Y23.133
X10.667 Y22.621
X10.944 Y21.952
X10.944 Y21.228
X10.667 Y20.559
X10.358 Y20.248
X10.321 Y20.172
X10.322 Y20.079
X10.352 Y20.007
X10.490 Y19.823
X10.560 Y19.553
X10.598 Y19.488
X10.660 Y19.441
X10.738 Y19.415
X10.832 Y19.428
X10.901 Y19.468
X11.165 Y19.733
X11.571 Y19.901
X13.863 Y19.902
X13.940 Y19.938
X14.000 Y19.999
X14.030 Y20.084
X14.027 Y20.174
X13.987 Y20.251
X13.987 Y20.251
X14.163 Y20.172
X14.468 Y20.107
X14.780 Y20.107
X15.085 Y20.172
X15.369 Y20.299
X15.622 Y20.482
X15.810 Y20.691
X15.801 Y20.656
X15.820 Y20.564
X15.875 Y20.486
X15.945 Y20.446
X16.008 Y20.434
X16.385 Y20.434
X16.725 Y20.293
X16.751 Y20.267
X16.814 Y20.228
X16.906 Y20.212
X16.984 Y20.234
X17.036 Y20.269
X17.999 Y21.233
X18.034 Y21.286
X18.052 Y21.358
X18.052 Y27.788
X18.040 Y27.851
X18.001 Y27.915
X13.093 Y32.817
X12.997 Y32.845
X12.912 Y32.831
X12.837 Y32.788
X12.786 Y32.714
X12.769 Y32.642
X12.771 Y29.137
X12.814 Y29.052
X12.887 Y28.991
X12.966 Y28.971
X13.048 Y28.978
X13.125 Y29.022
X13.039 Y28.758
X13.006 Y28.448
X13.039 Y28.138
X13.127 Y27.868
X13.090 Y27.899
X13.000 Y27.927
X12.919 Y27.916
X12.846 Y27.878
X12.789 Y27.803
X12.769 Y27.726
X12.769 Y25.307
X12.601 Y24.901
X12.290 Y24.590
X11.884 Y24.422
X6.110 Y24.422
X5.704 Y24.590
X5.393 Y24.901
X5.225 Y25.307
X5.225 Y43.273
X5.393 Y43.679
X5.704 Y43.990
X6.110 Y44.158
X14.424 Y44.158
X14.830 Y43.990
X32.159 Y26.661
X32.327 Y26.255
X32.331 Y3.417
X32.379 Y3.330
X32.449 Y3.280
X32.533 Y3.256
X32.621 Y3.273
X32.684 Y3.311
X33.220 Y3.848
X34.304 Y3.848
X34.891 Y3.261
X34.954 Y3.222
X35.045 Y3.206
X35.124 Y3.228
X35.176 Y3.263
X35.760 Y3.848
X36.844 Y3.848
X37.414 Y3.285
X37.509 Y3.257
X37.594 Y3.271
X37.669 Y3.314
X37.720 Y3.388
X37.737 Y3.460
X37.737 Y6.443
X37.905 Y6.849
X38.978 Y7.922
X39.384 Y8.090
X58.976 Y8.090
X59.038 Y8.103
X59.102 Y8.141
X59.235 Y8.274
X59.270 Y8.327
X59.288 Y8.399
X59.288 Y12.045
X59.276 Y12.107
X59.237 Y12.171
X58.850 Y12.558
X58.573 Y13.227
X58.573 Y13.951
X58.850 Y14.620
X59.362 Y15.132
X60.031 Y15.409
X60.755 Y15.409
X61.424 Y15.132
X61.936 Y14.620
X62.213 Y13.951
X62.213 Y13.227
X61.936 Y12.558
X61.551 Y12.173
X61.516 Y12.120
X61.498 Y12.048
X61.498 Y8.656
X61.511 Y8.594
X61.549 Y8.530
X62.063 Y8.016
X62.340 Y7.347
X62.340 Y6.623
X62.063 Y5.954
X61.551 Y5.442
X60.882 Y5.165
X60.158 Y5.165
X59.489 Y5.442
X59.104 Y5.827
X59.051 Y5.862
X58.979 Y5.880
X40.146 Y5.880
X40.074 Y5.863
X39.998 Y5.810
X39.958 Y5.739
X39.947 Y5.677
X39.951 Y3.417
X39.999 Y3.330
X40.069 Y3.280
X40.153 Y3.256
X40.241 Y3.273
X40.304 Y3.311
X40.840 Y3.848
X41.924 Y3.848
X42.690 Y3.082
X42.690 Y1.998
X42.090 Y1.392
X42.062 Y1.297
X42.076 Y1.211
X42.119 Y1.136
X42.193 Y1.085
X42.265 Y1.068
X69.288 Y1.068
X69.360 Y1.085
X69.436 Y1.139
X69.476 Y1.210
X69.487 Y1.271
X69.487 Y51.996
X69.470 Y52.068
X69.417 Y52.144
X69.346 Y52.184
X69.284 Y52.196
X51.442 Y52.191
X51.355 Y52.144
X51.305 Y52.074
X51.282 Y51.990
X51.298 Y51.902
X51.337 Y51.839
X51.834 Y51.342
X51.834 Y50.258
X51.068 Y49.492
X49.984 Y49.492
X49.397 Y50.079
X49.334 Y50.118
X49.243 Y50.134
X49.164 Y50.112
X49.112 Y50.077
X48.528 Y49.492
X47.444 Y49.492
X46.857 Y50.079
X46.794 Y50.118
X46.703 Y50.134
X46.624 Y50.112
X46.572 Y50.077
X45.988 Y49.492
X44.904 Y49.492
X44.066 Y50.331
X44.003 Y50.369
X43.911 Y50.385
X43.833 Y50.364
X43.781 Y50.328
X43.738 Y50.286
X43.955 Y50.653
X43.797 Y51.261
X43.847 Y51.231
X43.938 Y51.215
X44.016 Y51.236
X44.069 Y51.272
X44.662 Y51.872
X44.690 Y51.967
X44.676 Y52.053
X44.633 Y52.128
X44.559 Y52.179
X44.487 Y52.196
X41.282 Y52.191
X41.195 Y52.144
X41.145 Y52.074
X41.122 Y51.990
X41.138 Y51.902
X41.177 Y51.839
X41.746 Y51.269
X41.809 Y51.231
X41.901 Y51.215
X41.979 Y51.236
X42.031 Y51.272
X42.074 Y51.315
X41.858 Y50.947
X42.015 Y50.339
X41.965 Y50.369
X41.874 Y50.385
X41.796 Y50.364
X41.744 Y50.328
X41.524 Y50.108
X41.489 Y50.055
X41.471 Y49.983
X41.471 Y46.380
X41.483 Y46.317
X41.522 Y46.254
X42.675 Y45.100
X42.729 Y45.065
X42.801 Y45.047
X50.619 Y45.047
X51.025 Y44.879
X51.366 Y44.537
X65.709 Y30.194
X65.762 Y30.159
X65.835 Y30.141
X66.382 Y30.141
X67.051 Y29.864
X67.563 Y29.352
X67.840 Y28.683
X67.840 Y27.959
X67.563 Y27.290
X67.051 Y26.778
X66.382 Y26.501
X65.658 Y26.501
X64.989 Y26.778
X64.477 Y27.290
X64.200 Y27.959
X64.200 Y28.503
X64.188 Y28.566
X64.149 Y28.630
X49.995 Y42.784
X49.941 Y42.819
X49.869 Y42.837
X42.051 Y42.837
X41.645 Y43.005
X39.429 Y45.221
X39.325 Y45.468
X39.252 Y45.530
X39.162 Y45.558
X39.081 Y45.547
X39.008 Y45.509
X38.951 Y45.434
X38.931 Y45.357
X38.931 Y43.967
X38.944 Y43.904
X38.982 Y43.840
X41.532 Y41.290
X41.586 Y41.255
X41.658 Y41.237
X48.929 Y41.237
X49.335 Y41.069
X49.676 Y40.727
X60.209 Y30.194
X60.262 Y30.159
X60.335 Y30.141
X60.882 Y30.141
X61.551 Y29.864
X62.063 Y29.352
X62.340 Y28.683
X62.340 Y27.959
X62.063 Y27.290
X61.551 Y26.778
X60.882 Y26.501
X60.158 Y26.501
X59.489 Y26.778
X58.977 Y27.290
X58.700 Y27.959
X58.700 Y28.503
X58.688 Y28.566
X58.649 Y28.630
X48.305 Y38.974
X48.251 Y39.009
X48.179 Y39.027
X40.908 Y39.027
X40.502 Y39.195
X36.889 Y42.808
X36.721 Y43.214
X36.717 Y49.923
X36.669 Y50.010
X36.599 Y50.060
X36.515 Y50.084
X36.427 Y50.067
X36.364 Y50.029
X35.828 Y49.492
X34.744 Y49.492
X34.174 Y50.055
X34.079 Y50.083
X33.994 Y50.069
X33.919 Y50.026
X33.868 Y49.952
X33.851 Y49.880
X33.851 Y42.062
X33.864 Y41.999
X33.902 Y41.936
X50.296 Y25.542
X50.349 Y25.507
X50.421 Y25.489
X63.573 Y25.489
X63.979 Y25.321
X64.290 Y25.010
X64.458 Y24.604
X64.458 Y23.901
X64.471 Y23.838
X64.509 Y23.774
X65.582 Y22.701
X65.635 Y22.666
X65.708 Y22.648
X66.255 Y22.648
X66.924 Y22.371
X67.436 Y21.859
X67.713 Y21.190
X67.713 Y20.466
X67.436 Y19.797
X66.924 Y19.285
X66.255 Y19.008
X65.531 Y19.008
X64.862 Y19.285
X64.350 Y19.797
X64.073 Y20.466
X64.073 Y21.010
X64.061 Y21.073
X64.022 Y21.137
X62.758 Y22.401
X62.416 Y22.742
X62.228 Y23.193
X62.150 Y23.257
X62.068 Y23.279
X49.671 Y23.279
X49.265 Y23.447
X31.809 Y40.903
X31.705 Y41.150
X31.632 Y41.212
X31.542 Y41.240
X31.461 Y41.229
X31.388 Y41.191
X31.331 Y41.116
X31.311 Y41.039
X31.311 Y33.807
X31.324 Y33.744
X31.362 Y33.681
X43.056 Y21.986
X43.110 Y21.951
X43.182 Y21.933
X58.849 Y21.933
X58.911 Y21.946
X58.975 Y21.984
X59.362 Y22.371
X60.031 Y22.648
X60.755 Y22.648
X61.424 Y22.371
X61.936 Y21.859
X62.213 Y21.190
X62.213 Y20.466
X61.936 Y19.797
X61.424 Y19.285
X60.755 Y19.008
X60.031 Y19.008
X59.362 Y19.285
X58.977 Y19.670
X58.924 Y19.705
X58.852 Y19.723
X42.432 Y19.723
X42.026 Y19.891
X29.142 Y32.775
X28.974 Y33.181
X28.974 Y33.621
X29.091 Y33.904
X29.101 Y33.957
X29.097 Y49.923
X29.049 Y50.010
X28.979 Y50.060
X28.895 Y50.084
X28.807 Y50.067
X28.744 Y50.029
X28.208 Y49.492
X27.124 Y49.492
X26.358 Y50.258
X26.358 Y51.342
X26.882 Y51.872
X26.910 Y51.967
X26.896 Y52.053
X26.853 Y52.128
X26.779 Y52.179
X26.707 Y52.196
X24.518 Y52.191
X24.431 Y52.144
X24.381 Y52.074
X24.358 Y51.990
X24.374 Y51.902
X24.413 Y51.839
X24.910 Y51.342
X24.910 Y50.258
X24.144 Y49.492
X23.060 Y49.492
X22.473 Y50.079
X22.410 Y50.118
X22.319 Y50.134
X22.240 Y50.112
X22.188 Y50.077
X21.604 Y49.492
X20.520 Y49.492
X19.933 Y50.079
X19.870 Y50.118
X19.779 Y50.134
X19.700 Y50.112
X19.648 Y50.077
X19.064 Y49.492
X17.980 Y49.492
X17.393 Y50.079
X17.330 Y50.118
X17.239 Y50.134
X17.160 Y50.112
X17.108 Y50.077
X16.524 Y49.492
X15.440 Y49.492
X14.853 Y50.079
X14.790 Y50.118
X14.699 Y50.134
X14.620 Y50.112
X14.568 Y50.077
X13.984 Y49.492
X12.900 Y49.492
X12.313 Y50.079
X12.250 Y50.118
X12.159 Y50.134
X12.080 Y50.112
X12.028 Y50.077
X11.444 Y49.492
X10.360 Y49.492
X9.773 Y50.079
X9.710 Y50.118
X9.619 Y50.134
X9.540 Y50.112
X9.488 Y50.077
X8.904 Y49.492
X7.820 Y49.492
X7.233 Y50.079
X7.170 Y50.118
X7.079 Y50.134
X7.000 Y50.112
X6.948 Y50.077
X6.364 Y49.492
X5.280 Y49.492
X4.514 Y50.258
X4.514 Y51.342
X5.038 Y51.872
X5.066 Y51.967
X5.052 Y52.053
X5.009 Y52.128
X4.935 Y52.179
X4.863 Y52.196
X0.034 Y52.196
G0 Z3.000
G0  X45.593 Y51.849
G0  Z3.000
G01 F400 Z0
G01 F400 Z-0.100
G01F400X44.809 Y51.646
X44.398 Y50.947
X44.600 Y50.163
X45.299 Y49.752
X46.083 Y49.954
X46.495 Y50.653
X46.292 Y51.437
X45.593 Y51.849
G0 Z3.000
G0  X48.133 Y51.849
G0  Z3.000
G01 F400 Z0
G01 F400 Z-0.100
G01F400X47.349 Y51.646
X46.938 Y50.947
X47.140 Y50.163
X47.839 Y49.752
X48.623 Y49.954
X49.035 Y50.653
X48.832 Y51.437
X48.133 Y51.849
G0 Z3.000
G0  X50.673 Y51.849
G0  Z3.000
G01 F400 Z0
G01 F400 Z-0.100
G01F400X49.889 Y51.646
X49.477 Y50.947
X49.680 Y50.163
X50.379 Y49.752
X51.163 Y49.954
X51.575 Y50.653
X51.372 Y51.437
X50.673 Y51.849
G0 Z3.000
G0  X8.509 Y51.849
G0  Z3.000
G01 F400 Z0
G01 F400 Z-0.100
G01F400X7.725 Y51.646
X7.314 Y50.947
X7.516 Y50.163
X8.215 Y49.752
X8.999 Y49.954
X9.411 Y50.653
X9.208 Y51.437
X8.509 Y51.849
G0 Z3.000
G0  X11.049 Y51.849
G0  Z3.000
G01 F400 Z0
G01 F400 Z-0.100
G01F400X10.265 Y51.646
X9.854 Y50.947
X10.056 Y50.163
X10.755 Y49.752
X11.539 Y49.954
X11.950 Y50.653
X11.748 Y51.437
X11.049 Y51.849
G0 Z3.000
G0  X18.669 Y51.849
G0  Z3.000
G01 F400 Z0
G01 F400 Z-0.100
G01F400X17.885 Y51.646
X17.474 Y50.947
X17.676 Y50.163
X18.375 Y49.752
X19.159 Y49.954
X19.571 Y50.653
X19.368 Y51.437
X18.669 Y51.849
G0 Z3.000
G0  X5.969 Y51.849
G0  Z3.000
G01 F400 Z0
G01 F400 Z-0.100
G01F400X5.185 Y51.646
X4.774 Y50.947
X4.976 Y50.163
X5.675 Y49.752
X6.459 Y49.954
X6.871 Y50.653
X6.668 Y51.437
X5.969 Y51.849
G0 Z3.000
G0  X16.129 Y51.849
G0  Z3.000
G01 F400 Z0
G01 F400 Z-0.100
G01F400X15.345 Y51.646
X14.934 Y50.947
X15.136 Y50.163
X15.835 Y49.752
X16.619 Y49.954
X17.030 Y50.653
X16.828 Y51.437
X16.129 Y51.849
G0 Z3.000
G0  X13.589 Y51.849
G0  Z3.000
G01 F400 Z0
G01 F400 Z-0.100
G01F400X12.805 Y51.646
X12.394 Y50.947
X12.596 Y50.163
X13.295 Y49.752
X14.079 Y49.954
X14.491 Y50.653
X14.288 Y51.437
X13.589 Y51.849
G0 Z3.000
G0  X35.433 Y51.849
G0  Z3.000
G01 F400 Z0
G01 F400 Z-0.100
G01F400X34.649 Y51.646
X34.238 Y50.947
X34.440 Y50.163
X35.139 Y49.752
X35.923 Y49.954
X36.334 Y50.653
X36.132 Y51.437
X35.433 Y51.849
G0 Z3.000
G0  X32.893 Y51.849
G0  Z3.000
G01 F400 Z0
G01 F400 Z-0.100
G01F400X32.109 Y51.646
X31.698 Y50.947
X31.900 Y50.163
X31.971 Y50.121
X31.971 Y41.522
X31.987 Y41.368
X32.037 Y41.214
X32.118 Y41.073
X32.220 Y40.961
X49.375 Y23.805
X49.503 Y23.712
X49.651 Y23.646
X49.810 Y23.613
X62.578 Y23.613
X62.578 Y23.361
X62.594 Y23.207
X62.644 Y23.053
X62.725 Y22.912
X62.827 Y22.800
X64.448 Y21.178
X64.435 Y21.138
X64.402 Y20.828
X64.435 Y20.518
X64.531 Y20.222
X64.687 Y19.952
X64.895 Y19.720
X65.148 Y19.537
X65.432 Y19.410
X65.737 Y19.345
X66.049 Y19.345
X66.354 Y19.410
X66.638 Y19.537
X66.891 Y19.720
X67.099 Y19.952
X67.255 Y20.222
X67.351 Y20.518
X67.384 Y20.828
X67.351 Y21.138
X67.255 Y21.434
X67.099 Y21.704
X66.891 Y21.936
X66.638 Y22.119
X66.354 Y22.246
X66.049 Y22.311
X65.737 Y22.311
X65.546 Y22.270
X64.128 Y23.688
X64.128 Y24.391
X64.112 Y24.545
X64.062 Y24.700
X63.981 Y24.840
X63.872 Y24.961
X63.741 Y25.056
X63.593 Y25.122
X63.434 Y25.155
X50.214 Y25.155
X33.521 Y41.849
X33.521 Y50.188
X33.794 Y50.653
X33.592 Y51.437
X32.893 Y51.849
G0 Z3.000
G0  X40.513 Y51.849
G0  Z3.000
G01 F400 Z0
G01 F400 Z-0.100
G01F400X39.729 Y51.646
X39.318 Y50.947
X39.520 Y50.163
X39.591 Y50.121
X39.591 Y45.840
X39.607 Y45.686
X39.657 Y45.532
X39.738 Y45.391
X39.840 Y45.279
X41.755 Y43.363
X41.883 Y43.270
X42.031 Y43.204
X42.190 Y43.171
X50.076 Y43.171
X64.575 Y28.671
X64.562 Y28.631
X64.529 Y28.321
X64.562 Y28.011
X64.658 Y27.715
X64.814 Y27.445
X65.022 Y27.213
X65.275 Y27.030
X65.559 Y26.903
X65.864 Y26.838
X66.176 Y26.838
X66.481 Y26.903
X66.765 Y27.030
X67.018 Y27.213
X67.226 Y27.445
X67.382 Y27.715
X67.478 Y28.011
X67.511 Y28.321
X67.478 Y28.631
X67.382 Y28.927
X67.226 Y29.197
X67.018 Y29.429
X66.765 Y29.612
X66.481 Y29.739
X66.176 Y29.804
X65.864 Y29.804
X65.673 Y29.763
X50.915 Y44.521
X50.787 Y44.614
X50.639 Y44.680
X50.480 Y44.714
X42.594 Y44.714
X41.141 Y46.167
X41.141 Y50.188
X41.415 Y50.653
X41.212 Y51.437
X40.513 Y51.849
G0 Z3.000
G0  X37.973 Y51.849
G0  Z3.000
G01 F400 Z0
G01 F400 Z-0.100
G01F400X37.189 Y51.646
X36.778 Y50.947
X36.980 Y50.163
X37.051 Y50.121
X37.051 Y43.427
X37.067 Y43.273
X37.117 Y43.119
X37.198 Y42.978
X37.300 Y42.866
X40.612 Y39.553
X40.740 Y39.460
X40.888 Y39.394
X41.047 Y39.361
X48.386 Y39.361
X59.075 Y28.671
X59.062 Y28.631
X59.029 Y28.321
X59.062 Y28.011
X59.158 Y27.715
X59.314 Y27.445
X59.522 Y27.213
X59.775 Y27.030
X60.059 Y26.903
X60.364 Y26.838
X60.676 Y26.838
X60.981 Y26.903
X61.265 Y27.030
X61.518 Y27.213
X61.726 Y27.445
X61.882 Y27.715
X61.978 Y28.011
X62.011 Y28.321
X61.978 Y28.631
X61.882 Y28.927
X61.726 Y29.197
X61.518 Y29.429
X61.265 Y29.612
X60.981 Y29.739
X60.676 Y29.804
X60.364 Y29.804
X60.173 Y29.763
X49.225 Y40.711
X49.097 Y40.804
X48.949 Y40.870
X48.790 Y40.904
X41.451 Y40.904
X38.601 Y43.754
X38.601 Y50.188
X38.875 Y50.653
X38.672 Y51.437
X37.973 Y51.849
G0 Z3.000
G0  X23.749 Y51.849
G0  Z3.000
G01 F400 Z0
G01 F400 Z-0.100
G01F400X22.965 Y51.646
X22.553 Y50.947
X22.756 Y50.163
X23.455 Y49.752
X24.239 Y49.954
X24.651 Y50.653
X24.448 Y51.437
X23.749 Y51.849
G0 Z3.000
G0  X21.209 Y51.849
G0  Z3.000
G01 F400 Z0
G01 F400 Z-0.100
G01F400X20.425 Y51.646
X20.014 Y50.947
X20.216 Y50.163
X20.915 Y49.752
X21.699 Y49.954
X22.111 Y50.653
X21.908 Y51.437
X21.209 Y51.849
G0 Z3.000
G0  X30.353 Y51.849
G0  Z3.000
G01 F400 Z0
G01 F400 Z-0.100
G01F400X29.569 Y51.646
X29.158 Y50.947
X29.360 Y50.163
X29.431 Y50.121
X29.425 Y33.812
X29.370 Y33.717
X29.320 Y33.562
X29.303 Y33.401
X29.320 Y33.240
X29.370 Y33.086
X29.451 Y32.945
X29.553 Y32.833
X42.136 Y20.249
X42.264 Y20.156
X42.412 Y20.090
X42.571 Y20.056
X59.127 Y20.056
X59.187 Y19.952
X59.395 Y19.720
X59.648 Y19.537
X59.932 Y19.410
X60.237 Y19.345
X60.549 Y19.345
X60.854 Y19.410
X61.138 Y19.537
X61.391 Y19.720
X61.599 Y19.952
X61.755 Y20.222
X61.851 Y20.518
X61.884 Y20.828
X61.851 Y21.138
X61.755 Y21.434
X61.599 Y21.704
X61.391 Y21.936
X61.138 Y22.119
X60.854 Y22.246
X60.549 Y22.311
X60.237 Y22.311
X59.932 Y22.246
X59.648 Y22.119
X59.395 Y21.936
X59.187 Y21.704
X59.127 Y21.600
X42.975 Y21.600
X30.981 Y33.594
X30.981 Y50.188
X31.255 Y50.653
X31.052 Y51.437
X30.353 Y51.849
G0 Z3.000
G0  X27.813 Y51.849
G0  Z3.000
G01 F400 Z0
G01 F400 Z-0.100
G01F400X27.029 Y51.646
X26.617 Y50.947
X26.820 Y50.163
X27.519 Y49.752
X28.303 Y49.954
X28.715 Y50.653
X28.512 Y51.437
X27.813 Y51.849
G0 Z3.000
G0  X43.217 Y51.752
G0  Z3.000
G01 F400 Z0
G01 F400 Z-0.100
G01F400X43.300 Y51.752
X43.420 Y51.632
X43.217 Y51.752
G0 Z3.000
G0  X42.512 Y51.752
G0  Z3.000
G01 F400 Z0
G01 F400 Z-0.100
G01F400X42.614 Y51.752
X42.614 Y51.735
X42.452 Y51.693
X42.512 Y51.752
G0 Z3.000
G0  X6.249 Y43.825
G0  Z3.000
G01 F400 Z0
G01 F400 Z-0.100
G01F400X6.090 Y43.791
X5.942 Y43.725
X5.811 Y43.630
X5.702 Y43.509
X5.621 Y43.369
X5.571 Y43.214
X5.555 Y43.060
X5.555 Y25.520
X5.571 Y25.366
X5.621 Y25.212
X5.702 Y25.071
X5.811 Y24.950
X5.942 Y24.855
X6.090 Y24.789
X6.249 Y24.756
X11.745 Y24.756
X11.904 Y24.789
X12.052 Y24.855
X12.183 Y24.950
X12.292 Y25.071
X12.373 Y25.212
X12.423 Y25.366
X12.439 Y25.520
X12.439 Y33.519
X12.865 Y33.519
X18.382 Y28.001
X18.382 Y21.148
X16.802 Y19.568
X11.710 Y19.568
X11.551 Y19.534
X11.403 Y19.468
X11.275 Y19.375
X10.757 Y18.856
X10.655 Y18.744
X10.574 Y18.604
X10.524 Y18.449
X10.508 Y18.295
X10.508 Y15.941
X8.420 Y13.853
X8.027 Y13.853
X7.868 Y13.819
X7.761 Y13.771
X7.577 Y13.771
X7.552 Y13.616
X7.480 Y13.537
X7.399 Y13.397
X7.349 Y13.242
X7.332 Y13.081
X7.349 Y12.920
X7.399 Y12.766
X7.481 Y12.624
X7.556 Y12.544
X7.556 Y12.391
X7.761 Y12.391
X7.868 Y12.343
X8.027 Y12.309
X8.824 Y12.309
X8.983 Y12.343
X9.131 Y12.409
X9.259 Y12.502
X11.809 Y15.053
X11.911 Y15.165
X11.992 Y15.306
X12.042 Y15.460
X12.058 Y15.614
X12.058 Y17.968
X12.114 Y18.024
X17.206 Y18.024
X17.365 Y18.058
X17.513 Y18.124
X17.641 Y18.217
X19.684 Y20.260
X19.785 Y20.372
X19.866 Y20.512
X19.916 Y20.667
X19.932 Y20.821
X19.932 Y28.328
X19.916 Y28.482
X19.866 Y28.637
X19.785 Y28.777
X19.684 Y28.889
X13.704 Y34.869
X13.576 Y34.962
X13.428 Y35.028
X13.269 Y35.062
X11.583 Y35.062
X11.424 Y35.028
X11.276 Y34.962
X11.145 Y34.867
X11.036 Y34.746
X10.955 Y34.605
X10.905 Y34.451
X10.889 Y34.297
X10.889 Y26.299
X7.105 Y26.299
X7.105 Y42.282
X13.881 Y42.282
X30.447 Y25.715
X30.447 Y8.011
X22.472 Y8.011
X22.472 Y13.596
X22.456 Y13.750
X22.406 Y13.905
X22.325 Y14.045
X22.216 Y14.166
X22.085 Y14.261
X21.937 Y14.327
X21.778 Y14.361
X15.989 Y14.361
X15.830 Y14.327
X15.723 Y14.279
X15.440 Y14.279
X15.419 Y14.005
X15.361 Y13.905
X15.311 Y13.750
X15.294 Y13.589
X15.311 Y13.428
X15.362 Y13.272
X15.430 Y13.161
X15.430 Y12.899
X15.723 Y12.899
X15.830 Y12.851
X15.989 Y12.818
X20.922 Y12.818
X20.922 Y7.359
X20.938 Y7.205
X20.988 Y7.051
X21.069 Y6.910
X21.171 Y6.798
X21.308 Y6.660
X21.436 Y6.567
X21.584 Y6.501
X21.743 Y6.468
X30.447 Y6.468
X30.447 Y3.152
X30.174 Y2.687
X30.376 Y1.903
X31.075 Y1.492
X31.859 Y1.694
X32.270 Y2.393
X32.068 Y3.177
X31.997 Y3.219
X31.997 Y26.042
X31.981 Y26.196
X31.931 Y26.351
X31.850 Y26.491
X31.748 Y26.603
X14.720 Y43.632
X14.592 Y43.725
X14.444 Y43.791
X14.285 Y43.825
X6.249 Y43.825
G0 Z3.000
G0  X8.916 Y39.507
G0  Z3.000
G01 F400 Z0
G01 F400 Z-0.100
G01F400X8.757 Y39.473
X8.609 Y39.407
X8.478 Y39.312
X8.369 Y39.191
X8.288 Y39.050
X8.238 Y38.896
X8.222 Y38.742
X8.222 Y29.718
X7.999 Y29.556
X7.791 Y29.324
X7.635 Y29.054
X7.539 Y28.758
X7.506 Y28.448
X7.539 Y28.138
X7.635 Y27.842
X7.791 Y27.572
X7.999 Y27.340
X8.252 Y27.157
X8.536 Y27.030
X8.841 Y26.965
X9.153 Y26.965
X9.458 Y27.030
X9.742 Y27.157
X9.995 Y27.340
X10.203 Y27.572
X10.359 Y27.842
X10.455 Y28.138
X10.488 Y28.448
X10.455 Y28.758
X10.359 Y29.054
X10.203 Y29.324
X9.995 Y29.556
X9.772 Y29.718
X9.772 Y37.964
X12.357 Y37.964
X21.684 Y28.636
X21.684 Y18.989
X19.977 Y17.282
X15.989 Y17.282
X15.830 Y17.248
X15.723 Y17.200
X15.440 Y17.200
X15.419 Y16.926
X15.361 Y16.826
X15.311 Y16.671
X15.294 Y16.510
X15.311 Y16.349
X15.362 Y16.193
X15.430 Y16.082
X15.430 Y15.820
X15.723 Y15.820
X15.830 Y15.772
X15.989 Y15.739
X20.381 Y15.739
X20.540 Y15.772
X20.688 Y15.838
X20.816 Y15.931
X22.986 Y18.101
X23.087 Y18.213
X23.168 Y18.354
X23.218 Y18.508
X23.234 Y18.662
X23.234 Y28.963
X23.218 Y29.117
X23.168 Y29.271
X23.087 Y29.412
X22.986 Y29.524
X13.196 Y39.314
X13.068 Y39.407
X12.920 Y39.473
X12.761 Y39.507
X8.916 Y39.507
G0 Z3.000
G0  X8.968 Y23.073
G0  Z3.000
G01 F400 Z0
G01 F400 Z-0.100
G01F400X8.663 Y23.008
X8.379 Y22.881
X8.126 Y22.698
X7.918 Y22.466
X7.762 Y22.196
X7.666 Y21.900
X7.633 Y21.590
X7.666 Y21.280
X7.679 Y21.240
X7.543 Y21.103
X7.441 Y20.991
X7.360 Y20.851
X7.310 Y20.696
X7.294 Y20.542
X7.294 Y16.376
X7.310 Y16.222
X7.361 Y16.066
X7.429 Y15.955
X7.429 Y15.693
X7.722 Y15.693
X7.829 Y15.645
X7.988 Y15.612
X8.150 Y15.612
X8.309 Y15.645
X8.416 Y15.693
X8.699 Y15.693
X8.720 Y15.967
X8.778 Y16.067
X8.828 Y16.222
X8.844 Y16.376
X8.844 Y20.134
X8.968 Y20.107
X9.280 Y20.107
X9.585 Y20.172
X9.869 Y20.299
X10.122 Y20.482
X10.330 Y20.714
X10.486 Y20.984
X10.582 Y21.280
X10.615 Y21.590
X10.582 Y21.900
X10.486 Y22.196
X10.330 Y22.466
X10.122 Y22.698
X9.869 Y22.881
X9.585 Y23.008
X9.280 Y23.073
X8.968 Y23.073
G0 Z3.000
G0  X14.289 Y17.282
G0  Z3.000
G01 F400 Z0
G01 F400 Z-0.100
G01F400X14.130 Y17.248
X14.023 Y17.200
X13.740 Y17.200
X13.719 Y16.926
X13.661 Y16.826
X13.611 Y16.671
X13.595 Y16.517
X13.595 Y7.066
X13.611 Y6.912
X13.661 Y6.758
X13.742 Y6.617
X13.844 Y6.505
X14.450 Y5.898
X14.578 Y5.805
X14.726 Y5.739
X14.885 Y5.706
X17.747 Y5.706
X17.747 Y3.152
X17.474 Y2.687
X17.676 Y1.903
X18.375 Y1.492
X19.159 Y1.694
X19.571 Y2.393
X19.368 Y3.177
X19.297 Y3.219
X19.297 Y6.484
X19.281 Y6.638
X19.231 Y6.793
X19.150 Y6.933
X19.041 Y7.054
X18.910 Y7.149
X18.762 Y7.215
X18.603 Y7.248
X15.289 Y7.248
X15.145 Y7.393
X15.145 Y16.517
X15.129 Y16.671
X15.078 Y16.827
X15.010 Y16.938
X15.010 Y17.200
X14.717 Y17.200
X14.610 Y17.248
X14.451 Y17.282
X14.289 Y17.282
G0 Z3.000
G0  X5.126 Y17.155
G0  Z3.000
G01 F400 Z0
G01 F400 Z-0.100
G01F400X4.967 Y17.121
X4.819 Y17.055
X4.688 Y16.960
X4.579 Y16.839
X4.498 Y16.698
X4.448 Y16.544
X4.432 Y16.390
X4.432 Y12.947
X4.448 Y12.793
X4.498 Y12.639
X4.579 Y12.498
X4.688 Y12.377
X4.819 Y12.282
X4.967 Y12.216
X5.126 Y12.183
X5.138 Y12.183
X7.167 Y10.153
X7.167 Y8.756
X7.183 Y8.602
X7.233 Y8.447
X7.252 Y8.415
X7.252 Y8.123
X7.510 Y8.123
X7.554 Y8.091
X7.702 Y8.025
X7.861 Y7.992
X8.420 Y7.992
X12.545 Y3.866
X12.673 Y3.773
X12.821 Y3.707
X12.980 Y3.674
X15.207 Y3.674
X15.207 Y3.152
X14.934 Y2.687
X15.136 Y1.903
X15.835 Y1.492
X16.619 Y1.694
X17.030 Y2.393
X16.828 Y3.177
X16.757 Y3.219
X16.757 Y4.452
X16.741 Y4.606
X16.691 Y4.761
X16.610 Y4.901
X16.501 Y5.022
X16.370 Y5.117
X16.222 Y5.183
X16.063 Y5.216
X13.384 Y5.216
X9.259 Y9.342
X9.131 Y9.435
X8.983 Y9.501
X8.824 Y9.535
X8.717 Y9.535
X8.717 Y10.480
X8.701 Y10.634
X8.651 Y10.789
X8.570 Y10.929
X8.469 Y11.041
X7.127 Y12.411
X7.147 Y12.665
X7.205 Y12.766
X7.255 Y12.920
X7.272 Y13.081
X7.255 Y13.242
X7.204 Y13.398
X7.136 Y13.509
X7.136 Y13.771
X6.843 Y13.771
X6.736 Y13.819
X6.577 Y13.853
X5.982 Y13.853
X5.982 Y15.612
X6.450 Y15.612
X6.609 Y15.645
X6.716 Y15.693
X6.999 Y15.693
X7.020 Y15.967
X7.078 Y16.067
X7.128 Y16.222
X7.145 Y16.383
X7.128 Y16.544
X7.077 Y16.700
X7.009 Y16.811
X7.009 Y17.073
X6.716 Y17.073
X6.609 Y17.121
X6.450 Y17.155
X5.126 Y17.155
G0 Z3.000
G0  X60.237 Y15.072
G0  Z3.000
G01 F400 Z0
G01 F400 Z-0.100
G01F400X59.932 Y15.007
X59.648 Y14.880
X59.395 Y14.697
X59.187 Y14.465
X59.031 Y14.195
X58.935 Y13.899
X58.902 Y13.589
X58.935 Y13.279
X59.031 Y12.983
X59.187 Y12.713
X59.395 Y12.481
X59.618 Y12.320
X59.618 Y8.162
X59.522 Y8.093
X59.314 Y7.861
X59.254 Y7.756
X39.523 Y7.756
X39.364 Y7.723
X39.216 Y7.657
X39.088 Y7.564
X38.316 Y6.791
X38.214 Y6.679
X38.133 Y6.538
X38.083 Y6.384
X38.067 Y6.230
X38.067 Y3.152
X37.794 Y2.687
X37.996 Y1.903
X38.695 Y1.492
X39.479 Y1.694
X39.891 Y2.393
X39.688 Y3.177
X39.617 Y3.219
X39.617 Y5.903
X39.927 Y6.214
X59.254 Y6.214
X59.314 Y6.109
X59.522 Y5.877
X59.775 Y5.694
X60.059 Y5.567
X60.364 Y5.502
X60.676 Y5.502
X60.981 Y5.567
X61.265 Y5.694
X61.518 Y5.877
X61.726 Y6.109
X61.882 Y6.379
X61.978 Y6.675
X62.011 Y6.985
X61.978 Y7.295
X61.882 Y7.591
X61.726 Y7.861
X61.518 Y8.093
X61.265 Y8.276
X61.168 Y8.319
X61.168 Y12.320
X61.391 Y12.481
X61.599 Y12.713
X61.755 Y12.983
X61.851 Y13.279
X61.884 Y13.589
X61.851 Y13.899
X61.755 Y14.195
X61.599 Y14.465
X61.391 Y14.697
X61.138 Y14.880
X60.854 Y15.007
X60.549 Y15.072
X60.237 Y15.072
G0 Z3.000
G0  X15.697 Y12.536
G0  Z3.000
G01 F400 Z0
G01 F400 Z-0.100
G01F400X15.611 Y12.519
X15.534 Y12.471
X15.489 Y12.398
X15.475 Y12.331
X15.479 Y11.761
X15.442 Y11.720
X15.361 Y11.580
X15.311 Y11.425
X15.295 Y11.271
X15.295 Y9.684
X15.311 Y9.530
X15.361 Y9.376
X15.442 Y9.235
X15.543 Y9.123
X15.720 Y8.946
X15.848 Y8.853
X15.996 Y8.787
X16.155 Y8.754
X16.344 Y8.754
X16.382 Y8.662
X16.382 Y8.166
X16.319 Y8.021
X16.307 Y7.957
X16.318 Y7.882
X16.409 Y7.668
X16.486 Y7.604
X16.568 Y7.582
X18.742 Y7.582
X19.148 Y7.414
X19.459 Y7.103
X19.627 Y6.697
X19.627 Y3.360
X19.640 Y3.298
X19.678 Y3.234
X19.830 Y3.082
X19.830 Y1.998
X19.304 Y1.466
X19.275 Y1.372
X19.289 Y1.286
X19.332 Y1.210
X19.405 Y1.159
X19.476 Y1.142
X22.721 Y1.111
X22.809 Y1.159
X22.859 Y1.229
X22.883 Y1.311
X22.867 Y1.401
X22.828 Y1.464
X22.294 Y1.998
X22.294 Y3.082
X23.060 Y3.848
X24.144 Y3.848
X24.731 Y3.261
X24.794 Y3.222
X24.885 Y3.206
X24.964 Y3.228
X25.016 Y3.263
X25.528 Y3.776
X25.566 Y3.830
X25.584 Y3.916
X25.568 Y4.005
X25.518 Y4.074
X25.463 Y4.113
X25.389 Y4.143
X25.078 Y4.454
X24.910 Y4.860
X24.910 Y5.300
X25.079 Y5.708
X25.177 Y5.813
X25.205 Y5.906
X25.191 Y5.991
X25.148 Y6.066
X25.074 Y6.117
X25.002 Y6.134
X21.604 Y6.134
X21.198 Y6.302
X20.760 Y6.740
X20.592 Y7.146
X20.592 Y12.285
X20.575 Y12.357
X20.522 Y12.433
X20.451 Y12.473
X20.389 Y12.484
X15.850 Y12.484
X15.762 Y12.521
X15.697 Y12.536
G0 Z3.000
G0  X25.934 Y5.852
G0  Z3.000
G01 F400 Z0
G01 F400 Z-0.100
G01F400X25.775 Y5.818
X25.627 Y5.752
X25.496 Y5.657
X25.387 Y5.536
X25.306 Y5.396
X25.256 Y5.241
X25.239 Y5.080
X25.256 Y4.919
X25.306 Y4.764
X25.387 Y4.624
X25.496 Y4.503
X25.627 Y4.408
X25.775 Y4.342
X25.934 Y4.309
X27.907 Y4.309
X27.907 Y3.152
X27.634 Y2.687
X27.836 Y1.903
X28.535 Y1.492
X29.319 Y1.694
X29.731 Y2.393
X29.528 Y3.177
X29.457 Y3.219
X29.457 Y4.833
X29.441 Y4.987
X29.391 Y5.142
X29.310 Y5.282
X29.209 Y5.394
X28.944 Y5.659
X28.816 Y5.752
X28.668 Y5.818
X28.509 Y5.852
X25.934 Y5.852
G0 Z3.000
G0  X8.509 Y3.589
G0  Z3.000
G01 F400 Z0
G01 F400 Z-0.100
G01F400X7.725 Y3.386
X7.314 Y2.687
X7.516 Y1.903
X8.215 Y1.492
X8.999 Y1.694
X9.411 Y2.393
X9.208 Y3.177
X8.509 Y3.589
G0 Z3.000
G0  X11.049 Y3.589
G0  Z3.000
G01 F400 Z0
G01 F400 Z-0.100
G01F400X10.265 Y3.386
X9.854 Y2.687
X10.056 Y1.903
X10.755 Y1.492
X11.539 Y1.694
X11.950 Y2.393
X11.748 Y3.177
X11.049 Y3.589
G0 Z3.000
G0  X23.749 Y3.589
G0  Z3.000
G01 F400 Z0
G01 F400 Z-0.100
G01F400X22.965 Y3.386
X22.553 Y2.687
X22.756 Y1.903
X23.455 Y1.492
X24.239 Y1.694
X24.651 Y2.393
X24.448 Y3.177
X23.749 Y3.589
G0 Z3.000
G0  X5.969 Y3.589
G0  Z3.000
G01 F400 Z0
G01 F400 Z-0.100
G01F400X5.185 Y3.386
X4.774 Y2.687
X4.976 Y1.903
X5.675 Y1.492
X6.459 Y1.694
X6.871 Y2.393
X6.668 Y3.177
X5.969 Y3.589
G0 Z3.000
G0  X13.589 Y3.589
G0  Z3.000
G01 F400 Z0
G01 F400 Z-0.100
G01F400X12.805 Y3.386
X12.394 Y2.687
X12.596 Y1.903
X13.295 Y1.492
X14.079 Y1.694
X14.491 Y2.393
X14.288 Y3.177
X13.589 Y3.589
G0 Z3.000
G0  X36.449 Y3.589
G0  Z3.000
G01 F400 Z0
G01 F400 Z-0.100
G01F400X35.665 Y3.386
X35.254 Y2.687
X35.456 Y1.903
X36.155 Y1.492
X36.939 Y1.694
X37.351 Y2.393
X37.148 Y3.177
X36.449 Y3.589
G0 Z3.000
G0  X26.289 Y3.589
G0  Z3.000
G01 F400 Z0
G01 F400 Z-0.100
G01F400X25.505 Y3.386
X25.094 Y2.687
X25.296 Y1.903
X25.995 Y1.492
X26.779 Y1.694
X27.191 Y2.393
X26.988 Y3.177
X26.289 Y3.589
G0 Z3.000
G0  X33.909 Y3.589
G0  Z3.000
G01 F400 Z0
G01 F400 Z-0.100
G01F400X33.125 Y3.386
X32.714 Y2.687
X32.916 Y1.903
X33.615 Y1.492
X34.399 Y1.694
X34.811 Y2.393
X34.608 Y3.177
X33.909 Y3.589
G0 Z3.000
G0  X41.529 Y3.589
G0  Z3.000
G01 F400 Z0
G01 F400 Z-0.100
G01F400X40.745 Y3.386
X40.334 Y2.687
X40.536 Y1.903
X41.235 Y1.492
X42.019 Y1.694
X42.431 Y2.393
X42.228 Y3.177
X41.529 Y3.589
G0 Z3.000
G0  X0.024 Y52.286
G0  Z3.000
G01 F400 Z0
G01 F400 Z-0.100
G01F400X-0.075 Y52.262
X-0.182 Y52.187
X-0.239 Y52.086
X-0.255 Y52.001
X-0.251 Y30.386
X-0.182 Y30.260
X-0.082 Y30.189
X0.037 Y30.156
X0.162 Y30.179
X0.248 Y30.232
X0.294 Y30.278
X0.815 Y30.578
X1.396 Y30.734
X1.998 Y30.734
X2.579 Y30.578
X3.101 Y30.277
X3.526 Y29.852
X3.827 Y29.331
X3.983 Y28.749
X3.983 Y28.147
X3.827 Y27.566
X3.526 Y27.044
X3.101 Y26.619
X2.579 Y26.318
X1.998 Y26.162
X1.396 Y26.162
X0.815 Y26.318
X0.288 Y26.622
X0.200 Y26.701
X0.069 Y26.740
X-0.053 Y26.719
X-0.160 Y26.659
X-0.232 Y26.554
X-0.255 Y26.455
X-0.251 Y23.400
X-0.182 Y23.275
X-0.082 Y23.204
X0.037 Y23.171
X0.162 Y23.194
X0.248 Y23.247
X0.421 Y23.420
X0.942 Y23.720
X1.523 Y23.876
X2.125 Y23.876
X2.707 Y23.720
X3.228 Y23.420
X3.654 Y22.994
X3.954 Y22.473
X4.110 Y21.891
X4.110 Y21.289
X3.954 Y20.707
X3.654 Y20.186
X3.228 Y19.761
X2.707 Y19.460
X2.125 Y19.304
X1.523 Y19.304
X0.942 Y19.460
X0.419 Y19.761
X0.204 Y19.969
X0.069 Y20.009
X-0.053 Y19.988
X-0.160 Y19.928
X-0.232 Y19.823
X-0.255 Y19.724
X-0.255 Y1.540
X-0.232 Y1.442
X-0.158 Y1.336
X-0.057 Y1.278
X0.027 Y1.262
X4.769 Y1.215
X4.896 Y1.283
X4.968 Y1.383
X5.001 Y1.501
X4.979 Y1.627
X4.925 Y1.714
X4.604 Y2.036
X4.604 Y3.045
X5.317 Y3.758
X6.327 Y3.758
X6.895 Y3.189
X6.982 Y3.136
X7.110 Y3.114
X7.222 Y3.145
X7.293 Y3.194
X7.858 Y3.758
X8.867 Y3.758
X9.435 Y3.189
X9.522 Y3.136
X9.650 Y3.114
X9.762 Y3.145
X9.833 Y3.194
X10.398 Y3.758
X11.407 Y3.758
X11.975 Y3.190
X12.062 Y3.136
X12.190 Y3.114
X12.302 Y3.145
X12.373 Y3.194
X12.429 Y3.249
X12.481 Y3.335
X12.504 Y3.464
X12.473 Y3.576
X12.424 Y3.647
X8.396 Y7.675
X8.322 Y7.724
X8.225 Y7.748
X7.740 Y7.748
X7.363 Y7.905
X7.321 Y7.943
X7.190 Y7.984
X7.074 Y7.969
X6.868 Y7.883
X5.617 Y7.883
X5.573 Y7.902
X6.333 Y7.902
X6.510 Y7.939
X6.675 Y8.013
X6.703 Y8.033
X7.022 Y8.033
X7.022 Y8.391
X7.033 Y8.411
X7.089 Y8.583
X7.092 Y8.609
X7.095 Y8.583
X7.151 Y8.411
X7.162 Y8.391
X7.162 Y8.033
X7.481 Y8.033
X7.509 Y8.013
X7.674 Y7.939
X7.851 Y7.902
X8.383 Y7.902
X12.486 Y3.798
X12.628 Y3.695
X12.793 Y3.621
X12.970 Y3.584
X13.211 Y3.584
X12.746 Y3.463
X12.297 Y2.701
X12.519 Y1.844
X13.281 Y1.395
X14.138 Y1.617
X14.587 Y2.379
X14.365 Y3.236
X13.775 Y3.584
X15.117 Y3.584
X15.117 Y3.176
X14.837 Y2.701
X15.059 Y1.844
X15.821 Y1.395
X16.678 Y1.617
X17.127 Y2.379
X16.905 Y3.236
X16.847 Y3.270
X16.847 Y4.457
X16.829 Y4.625
X16.773 Y4.797
X16.683 Y4.954
X16.562 Y5.089
X16.415 Y5.195
X16.250 Y5.269
X16.073 Y5.307
X13.421 Y5.307
X9.318 Y9.410
X9.176 Y9.513
X9.011 Y9.587
X8.834 Y9.625
X8.807 Y9.625
X8.807 Y10.485
X8.789 Y10.653
X8.733 Y10.825
X8.643 Y10.982
X8.535 Y11.102
X7.220 Y12.445
X7.235 Y12.638
X7.287 Y12.729
X7.302 Y12.774
X7.317 Y12.729
X7.409 Y12.570
X7.466 Y12.508
X7.466 Y12.301
X7.742 Y12.301
X7.840 Y12.257
X8.017 Y12.220
X8.834 Y12.220
X9.011 Y12.257
X9.176 Y12.331
X9.318 Y12.434
X11.875 Y14.991
X11.984 Y15.112
X12.074 Y15.269
X12.130 Y15.441
X12.148 Y15.609
X12.148 Y17.931
X12.152 Y17.934
X17.216 Y17.934
X17.393 Y17.972
X17.558 Y18.046
X17.700 Y18.149
X19.749 Y20.198
X19.858 Y20.319
X19.948 Y20.476
X20.004 Y20.648
X20.022 Y20.816
X20.022 Y28.333
X20.004 Y28.501
X19.948 Y28.673
X19.858 Y28.830
X19.749 Y28.951
X13.763 Y34.937
X13.621 Y35.040
X13.456 Y35.114
X13.279 Y35.151
X11.573 Y35.151
X11.396 Y35.114
X11.231 Y35.040
X11.084 Y34.934
X10.963 Y34.799
X10.873 Y34.642
X10.817 Y34.470
X10.799 Y34.302
X10.799 Y26.389
X7.195 Y26.389
X7.195 Y42.192
X13.844 Y42.192
X30.357 Y25.678
X30.357 Y8.101
X22.562 Y8.101
X22.562 Y13.601
X22.544 Y13.769
X22.488 Y13.941
X22.398 Y14.098
X22.277 Y14.233
X22.130 Y14.339
X21.965 Y14.413
X21.788 Y14.450
X15.979 Y14.450
X15.802 Y14.413
X15.704 Y14.369
X15.357 Y14.369
X15.331 Y14.032
X15.279 Y13.941
X15.235 Y13.807
X15.235 Y16.292
X15.280 Y16.155
X15.340 Y16.056
X15.340 Y15.730
X15.704 Y15.730
X15.802 Y15.686
X15.979 Y15.649
X20.391 Y15.649
X20.568 Y15.686
X20.733 Y15.760
X20.875 Y15.863
X23.051 Y18.039
X23.160 Y18.160
X23.250 Y18.317
X23.306 Y18.489
X23.324 Y18.657
X23.324 Y28.968
X23.306 Y29.136
X23.250 Y29.308
X23.160 Y29.465
X23.051 Y29.586
X13.255 Y39.382
X13.113 Y39.485
X12.948 Y39.559
X12.771 Y39.596
X8.906 Y39.596
X8.729 Y39.559
X8.564 Y39.485
X8.417 Y39.379
X8.296 Y39.244
X8.206 Y39.087
X8.150 Y38.915
X8.132 Y38.747
X8.132 Y29.763
X7.939 Y29.623
X7.718 Y29.378
X7.552 Y29.091
X7.450 Y28.777
X7.416 Y28.448
X7.450 Y28.119
X7.552 Y27.805
X7.718 Y27.519
X7.939 Y27.273
X8.207 Y27.079
X8.508 Y26.944
X8.832 Y26.875
X9.162 Y26.875
X9.486 Y26.944
X9.787 Y27.079
X10.055 Y27.273
X10.276 Y27.519
X10.442 Y27.805
X10.544 Y28.119
X10.578 Y28.448
X10.544 Y28.777
X10.442 Y29.091
X10.276 Y29.378
X10.055 Y29.623
X9.862 Y29.763
X9.862 Y37.873
X12.320 Y37.873
X21.594 Y28.599
X21.594 Y19.026
X19.940 Y17.372
X15.979 Y17.372
X15.802 Y17.334
X15.704 Y17.290
X15.357 Y17.290
X15.331 Y16.953
X15.279 Y16.862
X15.223 Y16.690
X15.220 Y16.665
X15.217 Y16.690
X15.160 Y16.865
X15.100 Y16.964
X15.100 Y17.290
X14.736 Y17.290
X14.638 Y17.334
X14.461 Y17.372
X14.279 Y17.372
X14.102 Y17.334
X14.004 Y17.290
X13.657 Y17.290
X13.631 Y16.953
X13.579 Y16.862
X13.523 Y16.690
X13.505 Y16.522
X13.505 Y7.061
X13.523 Y6.893
X13.579 Y6.721
X13.669 Y6.564
X13.778 Y6.443
X14.391 Y5.830
X14.533 Y5.727
X14.698 Y5.653
X14.875 Y5.615
X17.657 Y5.615
X17.657 Y3.176
X17.377 Y2.701
X17.599 Y1.844
X18.361 Y1.395
X19.218 Y1.617
X19.667 Y2.379
X19.445 Y3.236
X19.387 Y3.270
X19.387 Y6.489
X19.369 Y6.657
X19.313 Y6.829
X19.223 Y6.986
X19.102 Y7.121
X18.955 Y7.227
X18.790 Y7.301
X18.613 Y7.339
X15.327 Y7.339
X15.235 Y7.430
X15.235 Y9.473
X15.279 Y9.339
X15.369 Y9.182
X15.478 Y9.061
X15.661 Y8.878
X15.803 Y8.775
X15.968 Y8.701
X16.145 Y8.664
X16.284 Y8.664
X16.292 Y8.645
X16.292 Y8.184
X16.233 Y8.047
X16.216 Y7.960
X16.230 Y7.858
X16.335 Y7.612
X16.444 Y7.522
X16.556 Y7.492
X18.724 Y7.492
X19.097 Y7.338
X19.383 Y7.052
X19.537 Y6.679
X19.537 Y3.351
X19.554 Y3.265
X19.606 Y3.178
X19.740 Y3.044
X19.740 Y2.035
X19.225 Y1.514
X19.183 Y1.378
X19.203 Y1.256
X19.264 Y1.148
X19.367 Y1.076
X19.465 Y1.052
X22.744 Y1.021
X22.870 Y1.090
X22.942 Y1.189
X22.975 Y1.307
X22.953 Y1.433
X22.899 Y1.520
X22.384 Y2.036
X22.384 Y3.045
X23.098 Y3.758
X24.107 Y3.758
X24.675 Y3.189
X24.762 Y3.136
X24.890 Y3.114
X25.002 Y3.145
X25.073 Y3.194
X25.597 Y3.717
X25.650 Y3.793
X25.675 Y3.914
X25.654 Y4.041
X25.582 Y4.139
X25.506 Y4.193
X25.440 Y4.220
X25.155 Y4.505
X25.000 Y4.878
X25.000 Y5.282
X25.156 Y5.658
X25.258 Y5.767
X25.297 Y5.900
X25.277 Y6.021
X25.216 Y6.129
X25.111 Y6.201
X25.012 Y6.224
X21.622 Y6.224
X21.249 Y6.379
X20.837 Y6.791
X20.682 Y7.164
X20.682 Y12.295
X20.659 Y12.394
X20.584 Y12.501
X20.482 Y12.558
X20.398 Y12.574
X15.868 Y12.574
X15.789 Y12.607
X15.699 Y12.627
X15.577 Y12.604
X15.469 Y12.536
X15.404 Y12.432
X15.385 Y12.340
X15.389 Y11.795
X15.369 Y11.773
X15.279 Y11.616
X15.235 Y11.482
X15.235 Y13.371
X15.280 Y13.234
X15.340 Y13.135
X15.340 Y12.809
X15.704 Y12.809
X15.802 Y12.765
X15.979 Y12.728
X20.832 Y12.728
X20.832 Y7.354
X20.850 Y7.186
X20.906 Y7.014
X20.996 Y6.857
X21.105 Y6.736
X21.249 Y6.592
X21.391 Y6.489
X21.556 Y6.415
X21.733 Y6.378
X30.357 Y6.378
X30.357 Y3.176
X30.077 Y2.701
X30.299 Y1.844
X31.061 Y1.395
X31.918 Y1.617
X32.367 Y2.379
X32.145 Y3.236
X32.087 Y3.270
X32.087 Y26.047
X32.069 Y26.215
X32.013 Y26.387
X31.923 Y26.544
X31.814 Y26.665
X14.779 Y43.700
X14.637 Y43.803
X14.472 Y43.877
X14.295 Y43.915
X6.239 Y43.915
X6.062 Y43.877
X5.897 Y43.803
X5.750 Y43.697
X5.629 Y43.562
X5.539 Y43.405
X5.483 Y43.233
X5.465 Y43.065
X5.465 Y25.515
X5.483 Y25.347
X5.539 Y25.175
X5.629 Y25.018
X5.750 Y24.883
X5.897 Y24.777
X6.062 Y24.703
X6.239 Y24.666
X11.755 Y24.666
X11.932 Y24.703
X12.097 Y24.777
X12.244 Y24.883
X12.365 Y25.018
X12.455 Y25.175
X12.511 Y25.347
X12.529 Y25.515
X12.529 Y33.428
X12.828 Y33.428
X18.292 Y27.964
X18.292 Y21.185
X16.765 Y19.658
X11.700 Y19.658
X11.523 Y19.620
X11.358 Y19.546
X11.216 Y19.443
X10.691 Y18.918
X10.582 Y18.797
X10.492 Y18.640
X10.436 Y18.468
X10.418 Y18.300
X10.418 Y15.978
X8.383 Y13.943
X8.017 Y13.943
X7.840 Y13.905
X7.742 Y13.861
X7.501 Y13.861
X7.467 Y13.657
X7.407 Y13.590
X7.317 Y13.433
X7.302 Y13.388
X7.286 Y13.436
X7.226 Y13.535
X7.226 Y13.861
X6.862 Y13.861
X6.764 Y13.905
X6.587 Y13.943
X6.072 Y13.943
X6.072 Y15.522
X6.460 Y15.522
X6.637 Y15.559
X6.735 Y15.603
X7.082 Y15.603
X7.108 Y15.940
X7.160 Y16.031
X7.216 Y16.203
X7.219 Y16.229
X7.222 Y16.203
X7.279 Y16.028
X7.339 Y15.929
X7.339 Y15.603
X7.703 Y15.603
X7.801 Y15.559
X7.978 Y15.522
X8.160 Y15.522
X8.337 Y15.559
X8.435 Y15.603
X8.782 Y15.603
X8.808 Y15.940
X8.860 Y16.031
X8.916 Y16.203
X8.934 Y16.371
X8.934 Y20.023
X8.959 Y20.017
X9.289 Y20.017
X9.613 Y20.086
X9.915 Y20.221
X10.182 Y20.415
X10.403 Y20.661
X10.569 Y20.947
X10.671 Y21.261
X10.705 Y21.590
X10.671 Y21.919
X10.569 Y22.233
X10.403 Y22.520
X10.182 Y22.765
X9.915 Y22.960
X9.613 Y23.094
X9.289 Y23.163
X8.959 Y23.163
X8.635 Y23.094
X8.334 Y22.960
X8.066 Y22.765
X7.845 Y22.520
X7.679 Y22.233
X7.577 Y21.919
X7.543 Y21.590
X7.577 Y21.265
X7.477 Y21.165
X7.368 Y21.044
X7.278 Y20.887
X7.222 Y20.715
X7.204 Y20.547
X7.204 Y16.601
X7.159 Y16.738
X7.099 Y16.837
X7.099 Y17.163
X6.735 Y17.163
X6.637 Y17.207
X6.460 Y17.245
X5.116 Y17.245
X4.939 Y17.207
X4.774 Y17.133
X4.627 Y17.027
X4.506 Y16.892
X4.416 Y16.735
X4.360 Y16.563
X4.342 Y16.395
X4.342 Y12.942
X4.360 Y12.774
X4.416 Y12.602
X4.506 Y12.445
X4.627 Y12.310
X4.774 Y12.204
X4.939 Y12.130
X5.096 Y12.097
X7.077 Y10.116
X7.077 Y8.981
X7.033 Y9.115
X7.022 Y9.135
X7.022 Y9.493
X6.703 Y9.493
X6.675 Y9.513
X6.510 Y9.587
X6.333 Y9.625
X5.573 Y9.625
X5.617 Y9.643
X6.680 Y9.648
X6.806 Y9.716
X6.877 Y9.816
X6.910 Y9.934
X6.887 Y10.060
X6.834 Y10.146
X5.090 Y11.890
X5.030 Y11.929
X4.632 Y12.094
X4.347 Y12.379
X4.192 Y12.752
X4.192 Y13.883
X4.177 Y13.954
X4.166 Y13.981
X4.166 Y15.483
X4.179 Y15.517
X4.192 Y15.587
X4.192 Y16.585
X4.346 Y16.958
X4.632 Y17.244
X5.005 Y17.398
X6.571 Y17.398
X6.650 Y17.365
X6.740 Y17.345
X6.862 Y17.368
X6.970 Y17.436
X7.035 Y17.540
X7.054 Y17.631
X7.054 Y20.737
X7.208 Y21.109
X7.321 Y21.223
X7.370 Y21.296
X7.394 Y21.393
X7.394 Y21.934
X7.657 Y22.570
X8.144 Y23.057
X8.780 Y23.320
X9.469 Y23.320
X10.104 Y23.057
X10.591 Y22.570
X10.854 Y21.934
X10.854 Y21.245
X10.591 Y20.610
X10.283 Y20.301
X10.231 Y20.191
X10.232 Y20.061
X10.273 Y19.962
X10.407 Y19.783
X10.476 Y19.518
X10.530 Y19.427
X10.618 Y19.360
X10.730 Y19.323
X10.862 Y19.341
X10.957 Y19.396
X11.216 Y19.656
X11.589 Y19.811
X13.883 Y19.813
X13.992 Y19.863
X14.078 Y19.949
X14.121 Y20.070
X14.120 Y20.093
X14.135 Y20.086
X14.459 Y20.017
X14.789 Y20.017
X15.113 Y20.086
X15.415 Y20.221
X15.682 Y20.415
X15.757 Y20.498
X15.812 Y20.418
X15.914 Y20.360
X15.999 Y20.344
X16.367 Y20.344
X16.674 Y20.217
X16.695 Y20.196
X16.782 Y20.142
X16.911 Y20.120
X17.023 Y20.151
X17.094 Y20.200
X18.069 Y21.175
X18.117 Y21.249
X18.142 Y21.346
X18.142 Y27.797
X18.125 Y27.884
X18.073 Y27.970
X13.140 Y32.897
X13.003 Y32.937
X12.882 Y32.917
X12.774 Y32.856
X12.702 Y32.751
X12.679 Y32.652
X12.681 Y29.115
X12.743 Y28.995
X12.845 Y28.909
X12.959 Y28.880
X12.985 Y28.882
X12.950 Y28.777
X12.916 Y28.448
X12.950 Y28.119
X12.984 Y28.016
X12.892 Y28.003
X12.787 Y27.949
X12.706 Y27.844
X12.679 Y27.737
X12.679 Y25.325
X12.524 Y24.952
X12.239 Y24.667
X11.866 Y24.512
X6.128 Y24.512
X5.755 Y24.667
X5.470 Y24.952
X5.315 Y25.325
X5.315 Y43.255
X5.470 Y43.628
X5.755 Y43.913
X6.128 Y44.068
X14.406 Y44.068
X14.779 Y43.913
X32.082 Y26.610
X32.237 Y26.237
X32.241 Y3.394
X32.310 Y3.269
X32.410 Y3.197
X32.529 Y3.164
X32.654 Y3.188
X32.740 Y3.240
X33.258 Y3.758
X34.267 Y3.758
X34.835 Y3.190
X34.922 Y3.136
X35.050 Y3.114
X35.162 Y3.145
X35.233 Y3.194
X35.797 Y3.758
X36.807 Y3.758
X37.367 Y3.205
X37.503 Y3.164
X37.625 Y3.185
X37.732 Y3.246
X37.804 Y3.351
X37.827 Y3.449
X37.827 Y6.425
X37.982 Y6.798
X39.029 Y7.846
X39.402 Y8.000
X58.985 Y8.000
X59.071 Y8.017
X59.158 Y8.069
X59.305 Y8.216
X59.354 Y8.290
X59.378 Y8.388
X59.378 Y12.054
X59.361 Y12.140
X59.309 Y12.227
X58.926 Y12.609
X58.663 Y13.245
X58.663 Y13.934
X58.926 Y14.569
X59.413 Y15.056
X60.049 Y15.319
X60.738 Y15.319
X61.373 Y15.056
X61.860 Y14.569
X62.123 Y13.934
X62.123 Y13.245
X61.860 Y12.609
X61.481 Y12.231
X61.433 Y12.157
X61.408 Y12.059
X61.408 Y8.647
X61.425 Y8.561
X61.477 Y8.474
X61.987 Y7.965
X62.250 Y7.330
X62.250 Y6.641
X61.987 Y6.005
X61.500 Y5.518
X60.864 Y5.255
X60.175 Y5.255
X59.540 Y5.518
X59.162 Y5.897
X59.088 Y5.946
X58.990 Y5.970
X40.136 Y5.970
X40.037 Y5.947
X39.930 Y5.872
X39.873 Y5.770
X39.857 Y5.685
X39.861 Y3.394
X39.930 Y3.269
X40.030 Y3.197
X40.149 Y3.164
X40.274 Y3.188
X40.360 Y3.240
X40.878 Y3.758
X41.887 Y3.758
X42.600 Y3.045
X42.600 Y2.035
X42.010 Y1.439
X41.970 Y1.302
X41.990 Y1.181
X42.051 Y1.074
X42.156 Y1.002
X42.254 Y0.978
X69.298 Y0.978
X69.397 Y1.002
X69.504 Y1.077
X69.561 Y1.179
X69.577 Y1.263
X69.577 Y52.007
X69.554 Y52.106
X69.478 Y52.213
X69.377 Y52.270
X69.293 Y52.286
X51.419 Y52.281
X51.294 Y52.213
X51.223 Y52.113
X51.190 Y51.994
X51.213 Y51.869
X51.266 Y51.783
X51.744 Y51.305
X51.744 Y50.296
X51.031 Y49.582
X50.022 Y49.582
X49.453 Y50.151
X49.366 Y50.204
X49.238 Y50.226
X49.126 Y50.195
X49.055 Y50.147
X48.491 Y49.582
X47.482 Y49.582
X46.913 Y50.151
X46.826 Y50.204
X46.698 Y50.226
X46.586 Y50.195
X46.515 Y50.147
X45.951 Y49.582
X44.942 Y49.582
X44.122 Y50.402
X44.035 Y50.455
X43.951 Y50.470
X44.051 Y50.639
X43.925 Y51.126
X43.942 Y51.123
X44.055 Y51.153
X44.126 Y51.203
X44.742 Y51.825
X44.782 Y51.962
X44.762 Y52.083
X44.701 Y52.191
X44.596 Y52.263
X44.497 Y52.286
X41.259 Y52.281
X41.134 Y52.213
X41.063 Y52.113
X41.029 Y51.994
X41.053 Y51.869
X41.106 Y51.783
X41.690 Y51.198
X41.777 Y51.145
X41.861 Y51.130
X41.761 Y50.961
X41.887 Y50.474
X41.870 Y50.477
X41.757 Y50.447
X41.686 Y50.398
X41.454 Y50.165
X41.406 Y50.092
X41.381 Y49.994
X41.381 Y46.371
X41.398 Y46.284
X41.450 Y46.198
X42.618 Y45.030
X42.692 Y44.982
X42.789 Y44.957
X50.601 Y44.957
X50.974 Y44.803
X51.302 Y44.474
X65.652 Y30.124
X65.726 Y30.076
X65.824 Y30.051
X66.365 Y30.051
X67.000 Y29.788
X67.487 Y29.301
X67.750 Y28.666
X67.750 Y27.977
X67.487 Y27.341
X67.000 Y26.854
X66.365 Y26.591
X65.675 Y26.591
X65.040 Y26.854
X64.553 Y27.341
X64.290 Y27.977
X64.290 Y28.512
X64.273 Y28.599
X64.221 Y28.685
X50.052 Y42.854
X49.978 Y42.903
X49.881 Y42.927
X42.069 Y42.927
X41.696 Y43.082
X39.506 Y45.272
X39.400 Y45.523
X39.297 Y45.610
X39.170 Y45.650
X39.054 Y45.634
X38.949 Y45.580
X38.868 Y45.474
X38.841 Y45.368
X38.841 Y43.958
X38.858 Y43.871
X38.910 Y43.785
X41.475 Y41.220
X41.549 Y41.172
X41.646 Y41.147
X48.911 Y41.147
X49.284 Y40.992
X49.612 Y40.664
X60.152 Y30.124
X60.226 Y30.076
X60.324 Y30.051
X60.864 Y30.051
X61.500 Y29.788
X61.987 Y29.301
X62.250 Y28.666
X62.250 Y27.977
X61.987 Y27.341
X61.500 Y26.854
X60.864 Y26.591
X60.175 Y26.591
X59.540 Y26.854
X59.053 Y27.341
X58.790 Y27.977
X58.790 Y28.512
X58.773 Y28.599
X58.721 Y28.685
X48.362 Y39.044
X48.288 Y39.093
X48.191 Y39.117
X40.926 Y39.117
X40.553 Y39.272
X36.966 Y42.859
X36.811 Y43.232
X36.807 Y49.946
X36.738 Y50.071
X36.638 Y50.143
X36.519 Y50.176
X36.394 Y50.152
X36.308 Y50.100
X35.791 Y49.582
X34.781 Y49.582
X34.221 Y50.135
X34.085 Y50.176
X33.963 Y50.155
X33.856 Y50.095
X33.784 Y49.989
X33.761 Y49.891
X33.761 Y42.053
X33.778 Y41.966
X33.830 Y41.880
X50.238 Y25.472
X50.312 Y25.424
X50.409 Y25.399
X63.555 Y25.399
X63.928 Y25.245
X64.213 Y24.959
X64.368 Y24.586
X64.368 Y23.892
X64.385 Y23.805
X64.437 Y23.719
X65.525 Y22.631
X65.599 Y22.582
X65.697 Y22.558
X66.237 Y22.558
X66.873 Y22.295
X67.360 Y21.808
X67.623 Y21.172
X67.623 Y20.483
X67.360 Y19.848
X66.873 Y19.361
X66.237 Y19.098
X65.549 Y19.098
X64.913 Y19.361
X64.426 Y19.848
X64.163 Y20.483
X64.163 Y21.019
X64.146 Y21.106
X64.094 Y21.192
X62.821 Y22.465
X62.492 Y22.794
X62.302 Y23.248
X62.192 Y23.339
X62.080 Y23.369
X49.689 Y23.369
X49.316 Y23.524
X31.886 Y40.954
X31.780 Y41.205
X31.677 Y41.292
X31.550 Y41.332
X31.434 Y41.316
X31.329 Y41.262
X31.248 Y41.156
X31.221 Y41.050
X31.221 Y33.798
X31.238 Y33.711
X31.290 Y33.625
X42.999 Y21.916
X43.073 Y21.867
X43.170 Y21.843
X58.858 Y21.843
X58.944 Y21.860
X59.031 Y21.912
X59.413 Y22.295
X60.049 Y22.558
X60.738 Y22.558
X61.373 Y22.295
X61.860 Y21.808
X62.123 Y21.172
X62.123 Y20.483
X61.860 Y19.848
X61.373 Y19.361
X60.738 Y19.098
X60.049 Y19.098
X59.413 Y19.361
X59.035 Y19.740
X58.961 Y19.789
X58.863 Y19.813
X42.450 Y19.813
X42.077 Y19.968
X29.219 Y32.826
X29.064 Y33.199
X29.064 Y33.603
X29.178 Y33.878
X29.191 Y33.949
X29.187 Y49.946
X29.118 Y50.071
X29.018 Y50.143
X28.899 Y50.176
X28.774 Y50.152
X28.688 Y50.100
X28.171 Y49.582
X27.162 Y49.582
X26.448 Y50.296
X26.448 Y51.305
X26.962 Y51.825
X27.002 Y51.962
X26.982 Y52.083
X26.921 Y52.190
X26.816 Y52.263
X26.717 Y52.286
X24.495 Y52.281
X24.370 Y52.213
X24.299 Y52.113
X24.265 Y51.994
X24.289 Y51.869
X24.342 Y51.783
X24.820 Y51.305
X24.820 Y50.296
X24.107 Y49.582
X23.098 Y49.582
X22.529 Y50.151
X22.442 Y50.204
X22.314 Y50.226
X22.202 Y50.195
X22.131 Y50.147
X21.567 Y49.582
X20.558 Y49.582
X19.989 Y50.151
X19.902 Y50.204
X19.774 Y50.226
X19.662 Y50.195
X19.591 Y50.147
X19.027 Y49.582
X18.018 Y49.582
X17.449 Y50.151
X17.362 Y50.204
X17.234 Y50.226
X17.122 Y50.195
X17.051 Y50.147
X16.486 Y49.582
X15.478 Y49.582
X14.909 Y50.150
X14.822 Y50.204
X14.694 Y50.226
X14.582 Y50.195
X14.511 Y50.147
X13.947 Y49.582
X12.938 Y49.582
X12.369 Y50.150
X12.282 Y50.204
X12.154 Y50.226
X12.042 Y50.195
X11.971 Y50.147
X11.407 Y49.582
X10.398 Y49.582
X9.829 Y50.150
X9.742 Y50.204
X9.614 Y50.226
X9.502 Y50.195
X9.431 Y50.147
X8.867 Y49.582
X7.858 Y49.582
X7.289 Y50.150
X7.202 Y50.204
X7.074 Y50.226
X6.962 Y50.195
X6.891 Y50.147
X6.327 Y49.582
X5.317 Y49.582
X4.604 Y50.296
X4.604 Y51.305
X5.118 Y51.825
X5.158 Y51.962
X5.138 Y52.083
X5.077 Y52.190
X4.972 Y52.263
X4.874 Y52.286
X0.024 Y52.286
G0 Z3.000
G0  X27.827 Y51.945
G0  Z3.000
G01 F400 Z0
G01 F400 Z-0.100
G01F400X26.970 Y51.723
X26.521 Y50.961
X26.743 Y50.104
X27.505 Y49.655
X28.362 Y49.877
X28.811 Y50.639
X28.589 Y51.496
X27.827 Y51.945
G0 Z3.000
G0  X30.367 Y51.945
G0  Z3.000
G01 F400 Z0
G01 F400 Z-0.100
G01F400X29.510 Y51.723
X29.061 Y50.961
X29.283 Y50.104
X29.341 Y50.070
X29.335 Y33.836
X29.288 Y33.753
X29.232 Y33.581
X29.213 Y33.401
X29.232 Y33.221
X29.288 Y33.049
X29.378 Y32.892
X29.487 Y32.771
X42.077 Y20.181
X42.219 Y20.078
X42.384 Y20.004
X42.561 Y19.966
X59.075 Y19.966
X59.114 Y19.899
X59.335 Y19.653
X59.603 Y19.459
X59.904 Y19.324
X60.228 Y19.255
X60.558 Y19.255
X60.882 Y19.324
X61.184 Y19.459
X61.451 Y19.653
X61.672 Y19.899
X61.838 Y20.185
X61.940 Y20.499
X61.974 Y20.828
X61.940 Y21.157
X61.838 Y21.471
X61.672 Y21.758
X61.451 Y22.003
X61.184 Y22.198
X60.882 Y22.332
X60.558 Y22.401
X60.228 Y22.401
X59.904 Y22.332
X59.603 Y22.198
X59.335 Y22.003
X59.114 Y21.758
X59.075 Y21.690
X43.013 Y21.690
X31.071 Y33.631
X31.071 Y50.164
X31.351 Y50.639
X31.129 Y51.496
X30.367 Y51.945
G0 Z3.000
G0  X21.223 Y51.945
G0  Z3.000
G01 F400 Z0
G01 F400 Z-0.100
G01F400X20.366 Y51.723
X19.917 Y50.961
X20.139 Y50.104
X20.901 Y49.655
X21.758 Y49.877
X22.207 Y50.639
X21.985 Y51.496
X21.223 Y51.945
G0 Z3.000
G0  X23.763 Y51.945
G0  Z3.000
G01 F400 Z0
G01 F400 Z-0.100
G01F400X22.906 Y51.723
X22.457 Y50.961
X22.679 Y50.104
X23.441 Y49.655
X24.298 Y49.877
X24.747 Y50.639
X24.525 Y51.496
X23.763 Y51.945
G0 Z3.000
G0  X37.987 Y51.945
G0  Z3.000
G01 F400 Z0
G01 F400 Z-0.100
G01F400X37.130 Y51.723
X36.681 Y50.961
X36.903 Y50.104
X36.961 Y50.070
X36.961 Y43.422
X36.979 Y43.254
X37.035 Y43.082
X37.125 Y42.925
X37.234 Y42.804
X40.553 Y39.485
X40.695 Y39.382
X40.860 Y39.308
X41.037 Y39.270
X48.349 Y39.270
X58.973 Y28.646
X58.939 Y28.321
X58.973 Y27.992
X59.075 Y27.678
X59.241 Y27.392
X59.462 Y27.146
X59.730 Y26.952
X60.031 Y26.817
X60.355 Y26.748
X60.685 Y26.748
X61.009 Y26.817
X61.311 Y26.952
X61.578 Y27.146
X61.799 Y27.392
X61.965 Y27.678
X62.067 Y27.992
X62.101 Y28.321
X62.067 Y28.650
X61.965 Y28.964
X61.799 Y29.251
X61.578 Y29.496
X61.311 Y29.691
X61.009 Y29.825
X60.685 Y29.894
X60.355 Y29.894
X60.202 Y29.861
X49.284 Y40.779
X49.142 Y40.882
X48.977 Y40.956
X48.800 Y40.994
X41.489 Y40.994
X38.691 Y43.791
X38.691 Y50.164
X38.971 Y50.639
X38.749 Y51.496
X37.987 Y51.945
G0 Z3.000
G0  X40.527 Y51.945
G0  Z3.000
G01 F400 Z0
G01 F400 Z-0.100
G01F400X39.670 Y51.723
X39.221 Y50.961
X39.443 Y50.104
X39.501 Y50.070
X39.501 Y45.835
X39.519 Y45.667
X39.575 Y45.495
X39.665 Y45.338
X39.774 Y45.217
X41.696 Y43.295
X41.838 Y43.192
X42.003 Y43.118
X42.180 Y43.081
X50.038 Y43.081
X64.473 Y28.646
X64.439 Y28.321
X64.473 Y27.992
X64.575 Y27.678
X64.741 Y27.392
X64.962 Y27.146
X65.230 Y26.952
X65.531 Y26.817
X65.855 Y26.748
X66.185 Y26.748
X66.509 Y26.817
X66.811 Y26.952
X67.078 Y27.146
X67.299 Y27.392
X67.465 Y27.678
X67.567 Y27.992
X67.601 Y28.321
X67.567 Y28.650
X67.465 Y28.964
X67.299 Y29.251
X67.078 Y29.496
X66.811 Y29.691
X66.509 Y29.825
X66.185 Y29.894
X65.855 Y29.894
X65.702 Y29.861
X50.974 Y44.589
X50.832 Y44.692
X50.667 Y44.766
X50.490 Y44.803
X42.632 Y44.803
X41.231 Y46.204
X41.231 Y50.164
X41.511 Y50.639
X41.289 Y51.496
X40.527 Y51.945
G0 Z3.000
G0  X32.907 Y51.945
G0  Z3.000
G01 F400 Z0
G01 F400 Z-0.100
G01F400X32.050 Y51.723
X31.601 Y50.961
X31.823 Y50.104
X31.881 Y50.070
X31.881 Y41.517
X31.899 Y41.349
X31.955 Y41.177
X32.045 Y41.020
X32.154 Y40.899
X49.316 Y23.737
X49.458 Y23.634
X49.623 Y23.560
X49.800 Y23.523
X62.488 Y23.523
X62.488 Y23.356
X62.506 Y23.188
X62.562 Y23.016
X62.652 Y22.859
X62.761 Y22.738
X64.346 Y21.153
X64.312 Y20.828
X64.346 Y20.499
X64.448 Y20.185
X64.614 Y19.899
X64.835 Y19.653
X65.103 Y19.459
X65.404 Y19.324
X65.728 Y19.255
X66.058 Y19.255
X66.382 Y19.324
X66.684 Y19.459
X66.951 Y19.653
X67.172 Y19.899
X67.338 Y20.185
X67.440 Y20.499
X67.474 Y20.828
X67.440 Y21.157
X67.338 Y21.471
X67.172 Y21.758
X66.951 Y22.003
X66.684 Y22.198
X66.382 Y22.332
X66.058 Y22.401
X65.728 Y22.401
X65.575 Y22.368
X64.218 Y23.725
X64.218 Y24.396
X64.200 Y24.564
X64.144 Y24.736
X64.054 Y24.893
X63.933 Y25.028
X63.786 Y25.134
X63.621 Y25.208
X63.444 Y25.245
X50.252 Y25.245
X33.611 Y41.886
X33.611 Y50.164
X33.891 Y50.639
X33.669 Y51.496
X32.907 Y51.945
G0 Z3.000
G0  X35.447 Y51.945
G0  Z3.000
G01 F400 Z0
G01 F400 Z-0.100
G01F400X34.590 Y51.723
X34.141 Y50.961
X34.363 Y50.104
X35.125 Y49.655
X35.982 Y49.877
X36.431 Y50.639
X36.209 Y51.496
X35.447 Y51.945
G0 Z3.000
G0  X13.603 Y51.945
G0  Z3.000
G01 F400 Z0
G01 F400 Z-0.100
G01F400X12.746 Y51.723
X12.297 Y50.961
X12.519 Y50.104
X13.281 Y49.655
X14.138 Y49.877
X14.587 Y50.639
X14.365 Y51.496
X13.603 Y51.945
G0 Z3.000
G0  X16.143 Y51.945
G0  Z3.000
G01 F400 Z0
G01 F400 Z-0.100
G01F400X15.286 Y51.723
X14.837 Y50.961
X15.059 Y50.104
X15.821 Y49.655
X16.678 Y49.877
X17.127 Y50.639
X16.905 Y51.496
X16.143 Y51.945
G0 Z3.000
G0  X5.983 Y51.945
G0  Z3.000
G01 F400 Z0
G01 F400 Z-0.100
G01F400X5.126 Y51.723
X4.677 Y50.961
X4.899 Y50.104
X5.661 Y49.655
X6.518 Y49.877
X6.967 Y50.639
X6.745 Y51.496
X5.983 Y51.945
G0 Z3.000
G0  X18.683 Y51.945
G0  Z3.000
G01 F400 Z0
G01 F400 Z-0.100
G01F400X17.826 Y51.723
X17.377 Y50.961
X17.599 Y50.104
X18.361 Y49.655
X19.218 Y49.877
X19.667 Y50.639
X19.445 Y51.496
X18.683 Y51.945
G0 Z3.000
G0  X11.063 Y51.945
G0  Z3.000
G01 F400 Z0
G01 F400 Z-0.100
G01F400X10.206 Y51.723
X9.757 Y50.961
X9.979 Y50.104
X10.741 Y49.655
X11.598 Y49.877
X12.047 Y50.639
X11.825 Y51.496
X11.063 Y51.945
G0 Z3.000
G0  X8.523 Y51.945
G0  Z3.000
G01 F400 Z0
G01 F400 Z-0.100
G01F400X7.666 Y51.723
X7.217 Y50.961
X7.439 Y50.104
X8.201 Y49.655
X9.058 Y49.877
X9.507 Y50.639
X9.285 Y51.496
X8.523 Y51.945
G0 Z3.000
G0  X50.687 Y51.945
G0  Z3.000
G01 F400 Z0
G01 F400 Z-0.100
G01F400X49.830 Y51.723
X49.381 Y50.961
X49.603 Y50.104
X50.365 Y49.655
X51.222 Y49.877
X51.671 Y50.639
X51.449 Y51.496
X50.687 Y51.945
G0 Z3.000
G0  X48.147 Y51.945
G0  Z3.000
G01 F400 Z0
G01 F400 Z-0.100
G01F400X47.290 Y51.723
X46.841 Y50.961
X47.063 Y50.104
X47.825 Y49.655
X48.682 Y49.877
X49.131 Y50.639
X48.909 Y51.496
X48.147 Y51.945
G0 Z3.000
G0  X45.607 Y51.945
G0  Z3.000
G01 F400 Z0
G01 F400 Z-0.100
G01F400X44.750 Y51.723
X44.301 Y50.961
X44.523 Y50.104
X45.285 Y49.655
X46.142 Y49.877
X46.591 Y50.639
X46.369 Y51.496
X45.607 Y51.945
G0 Z3.000
G0  X60.228 Y15.162
G0  Z3.000
G01 F400 Z0
G01 F400 Z-0.100
G01F400X59.904 Y15.093
X59.603 Y14.959
X59.335 Y14.764
X59.114 Y14.519
X58.948 Y14.232
X58.846 Y13.918
X58.812 Y13.589
X58.846 Y13.260
X58.948 Y12.946
X59.114 Y12.660
X59.335 Y12.414
X59.528 Y12.274
X59.528 Y8.208
X59.462 Y8.160
X59.241 Y7.915
X59.202 Y7.847
X39.513 Y7.847
X39.336 Y7.809
X39.171 Y7.735
X39.029 Y7.632
X38.250 Y6.853
X38.141 Y6.732
X38.051 Y6.575
X37.995 Y6.403
X37.977 Y6.235
X37.977 Y3.176
X37.697 Y2.701
X37.919 Y1.844
X38.681 Y1.395
X39.538 Y1.617
X39.987 Y2.379
X39.765 Y3.236
X39.707 Y3.270
X39.707 Y5.866
X39.965 Y6.123
X59.202 Y6.123
X59.241 Y6.056
X59.462 Y5.810
X59.730 Y5.615
X60.031 Y5.481
X60.355 Y5.412
X60.685 Y5.412
X61.009 Y5.481
X61.311 Y5.615
X61.578 Y5.810
X61.799 Y6.056
X61.965 Y6.342
X62.067 Y6.656
X62.101 Y6.985
X62.067 Y7.314
X61.965 Y7.628
X61.799 Y7.915
X61.578 Y8.160
X61.311 Y8.354
X61.258 Y8.378
X61.258 Y12.274
X61.451 Y12.414
X61.672 Y12.660
X61.838 Y12.946
X61.940 Y13.260
X61.974 Y13.589
X61.940 Y13.918
X61.838 Y14.232
X61.672 Y14.519
X61.451 Y14.764
X61.184 Y14.959
X60.882 Y15.093
X60.558 Y15.162
X60.228 Y15.162
G0 Z3.000
G0  X25.924 Y5.942
G0  Z3.000
G01 F400 Z0
G01 F400 Z-0.100
G01F400X25.747 Y5.904
X25.582 Y5.830
X25.435 Y5.724
X25.314 Y5.589
X25.224 Y5.432
X25.168 Y5.260
X25.149 Y5.080
X25.168 Y4.900
X25.224 Y4.728
X25.314 Y4.571
X25.435 Y4.436
X25.582 Y4.330
X25.747 Y4.256
X25.924 Y4.219
X27.817 Y4.219
X27.817 Y3.176
X27.537 Y2.701
X27.759 Y1.844
X28.521 Y1.395
X29.378 Y1.617
X29.827 Y2.379
X29.605 Y3.236
X29.547 Y3.270
X29.547 Y4.838
X29.529 Y5.006
X29.473 Y5.178
X29.383 Y5.335
X29.274 Y5.456
X29.003 Y5.727
X28.861 Y5.830
X28.696 Y5.904
X28.519 Y5.942
X25.924 Y5.942
G0 Z3.000
G0  X41.543 Y3.685
G0  Z3.000
G01 F400 Z0
G01 F400 Z-0.100
G01F400X40.686 Y3.463
X40.237 Y2.701
X40.459 Y1.844
X41.221 Y1.395
X42.078 Y1.617
X42.527 Y2.379
X42.305 Y3.236
X41.543 Y3.685
G0 Z3.000
G0  X33.923 Y3.685
G0  Z3.000
G01 F400 Z0
G01 F400 Z-0.100
G01F400X33.066 Y3.463
X32.617 Y2.701
X32.839 Y1.844
X33.601 Y1.395
X34.458 Y1.617
X34.907 Y2.379
X34.685 Y3.236
X33.923 Y3.685
G0 Z3.000
G0  X26.303 Y3.685
G0  Z3.000
G01 F400 Z0
G01 F400 Z-0.100
G01F400X25.446 Y3.463
X24.997 Y2.701
X25.219 Y1.844
X25.981 Y1.395
X26.838 Y1.617
X27.287 Y2.379
X27.065 Y3.236
X26.303 Y3.685
G0 Z3.000
G0  X36.463 Y3.685
G0  Z3.000
G01 F400 Z0
G01 F400 Z-0.100
G01F400X35.606 Y3.463
X35.157 Y2.701
X35.379 Y1.844
X36.141 Y1.395
X36.998 Y1.617
X37.447 Y2.379
X37.225 Y3.236
X36.463 Y3.685
G0 Z3.000
G0  X5.983 Y3.685
G0  Z3.000
G01 F400 Z0
G01 F400 Z-0.100
G01F400X5.126 Y3.463
X4.677 Y2.701
X4.899 Y1.844
X5.661 Y1.395
X6.518 Y1.617
X6.967 Y2.379
X6.745 Y3.236
X5.983 Y3.685
G0 Z3.000
G0  X23.763 Y3.685
G0  Z3.000
G01 F400 Z0
G01 F400 Z-0.100
G01F400X22.906 Y3.463
X22.457 Y2.701
X22.679 Y1.844
X23.441 Y1.395
X24.298 Y1.617
X24.747 Y2.379
X24.525 Y3.236
X23.763 Y3.685
G0 Z3.000
G0  X11.063 Y3.685
G0  Z3.000
G01 F400 Z0
G01 F400 Z-0.100
G01F400X10.206 Y3.463
X9.757 Y2.701
X9.979 Y1.844
X10.741 Y1.395
X11.598 Y1.617
X12.047 Y2.379
X11.825 Y3.236
X11.063 Y3.685
G0 Z3.000
G0  X8.523 Y3.685
G0  Z3.000
G01 F400 Z0
G01 F400 Z-0.100
G01F400X7.666 Y3.463
X7.217 Y2.701
X7.439 Y1.844
X8.201 Y1.395
X9.058 Y1.617
X9.507 Y2.379
X9.285 Y3.236
X8.523 Y3.685
G0 Z3.000
M05
(  )
T0 M06
( Drilling )
M03 S10000
G00 X1.824 Y21.590
G0  Z3.000
G01 F250.0 Z-1.780
G00 Z3.000
G00 X1.697 Y28.448
G0  Z3.000
G01 F250.0 Z-1.780
G00 Z3.000
G00 X73.320 Y6.985
G0  Z3.000
G01 F250.0 Z-1.780
G00 Z3.000
G00 X73.193 Y13.589
G0  Z3.000
G01 F250.0 Z-1.780
G00 Z3.000
G00 X73.320 Y28.321
G0  Z3.000
G01 F250.0 Z-1.780
G00 Z3.000
G00 X73.193 Y20.828
G0  Z3.000
G01 F250.0 Z-1.780
G00 Z3.000
M05
(  )
T2 M06
( Drilling )
M03 S10000
G00 X60.393 Y20.828
G0  Z3.000
G01 F250.0 Z-1.780
G00 Z3.000
G00 X65.893 Y20.828
G0  Z3.000
G01 F250.0 Z-1.780
G00 Z3.000
G00 X60.520 Y28.321
G0  Z3.000
G01 F250.0 Z-1.780
G00 Z3.000
G00 X66.020 Y28.321
G0  Z3.000
G01 F250.0 Z-1.780
G00 Z3.000
G00 X60.393 Y13.589
G0  Z3.000
G01 F250.0 Z-1.780
G00 Z3.000
G00 X65.893 Y13.589
G0  Z3.000
G01 F250.0 Z-1.780
G00 Z3.000
G00 X60.520 Y6.985
G0  Z3.000
G01 F250.0 Z-1.780
G00 Z3.000
G00 X66.020 Y6.985
G0  Z3.000
G01 F250.0 Z-1.780
G00 Z3.000
G00 X14.497 Y28.448
G0  Z3.000
G01 F250.0 Z-1.780
G00 Z3.000
G00 X8.997 Y28.448
G0  Z3.000
G01 F250.0 Z-1.780
G00 Z3.000
G00 X14.624 Y21.590
G0  Z3.000
G01 F250.0 Z-1.780
G00 Z3.000
G00 X9.124 Y21.590
G0  Z3.000
G01 F250.0 Z-1.780
G00 Z3.000
M05
(  )
T3 M06
( Drilling )
M03 S10000
G00 X35.286 Y50.800
G0  Z3.000
G01 F250.0 Z-1.780
G00 Z3.000
G00 X37.826 Y50.800
G0  Z3.000
G01 F250.0 Z-1.780
G00 Z3.000
G00 X40.366 Y50.800
G0  Z3.000
G01 F250.0 Z-1.780
G00 Z3.000
G00 X42.906 Y50.800
G0  Z3.000
G01 F250.0 Z-1.780
G00 Z3.000
G00 X45.446 Y50.800
G0  Z3.000
G01 F250.0 Z-1.780
G00 Z3.000
G00 X15.982 Y2.540
G0  Z3.000
G01 F250.0 Z-1.780
G00 Z3.000
G00 X13.442 Y2.540
G0  Z3.000
G01 F250.0 Z-1.780
G00 Z3.000
G00 X15.982 Y50.800
G0  Z3.000
G01 F250.0 Z-1.780
G00 Z3.000
G00 X8.362 Y2.540
G0  Z3.000
G01 F250.0 Z-1.780
G00 Z3.000
G00 X5.822 Y2.540
G0  Z3.000
G01 F250.0 Z-1.780
G00 Z3.000
G00 X23.602 Y2.540
G0  Z3.000
G01 F250.0 Z-1.780
G00 Z3.000
G00 X26.142 Y2.540
G0  Z3.000
G01 F250.0 Z-1.780
G00 Z3.000
G00 X28.682 Y2.540
G0  Z3.000
G01 F250.0 Z-1.780
G00 Z3.000
G00 X31.222 Y2.540
G0  Z3.000
G01 F250.0 Z-1.780
G00 Z3.000
G00 X33.762 Y2.540
G0  Z3.000
G01 F250.0 Z-1.780
G00 Z3.000
G00 X36.302 Y2.540
G0  Z3.000
G01 F250.0 Z-1.780
G00 Z3.000
G00 X47.986 Y50.800
G0  Z3.000
G01 F250.0 Z-1.780
G00 Z3.000
G00 X50.526 Y50.800
G0  Z3.000
G01 F250.0 Z-1.780
G00 Z3.000
G00 X38.842 Y2.540
G0  Z3.000
G01 F250.0 Z-1.780
G00 Z3.000
G00 X41.382 Y2.540
G0  Z3.000
G01 F250.0 Z-1.780
G00 Z3.000
G00 X32.746 Y50.800
G0  Z3.000
G01 F250.0 Z-1.780
G00 Z3.000
G00 X30.206 Y50.800
G0  Z3.000
G01 F250.0 Z-1.780
G00 Z3.000
G00 X27.666 Y50.800
G0  Z3.000
G01 F250.0 Z-1.780
G00 Z3.000
G00 X23.602 Y50.800
G0  Z3.000
G01 F250.0 Z-1.780
G00 Z3.000
G00 X21.062 Y50.800
G0  Z3.000
G01 F250.0 Z-1.780
G00 Z3.000
G00 X18.522 Y50.800
G0  Z3.000
G01 F250.0 Z-1.780
G00 Z3.000
G00 X5.822 Y50.800
G0  Z3.000
G01 F250.0 Z-1.780
G00 Z3.000
G00 X8.362 Y50.800
G0  Z3.000
G01 F250.0 Z-1.780
G00 Z3.000
G00 X10.902 Y50.800
G0  Z3.000
G01 F250.0 Z-1.780
G00 Z3.000
G00 X13.442 Y50.800
G0  Z3.000
G01 F250.0 Z-1.780
G00 Z3.000
G00 X18.522 Y2.540
G0  Z3.000
G01 F250.0 Z-1.780
G00 Z3.000
G00 X10.902 Y2.540
G0  Z3.000
G01 F250.0 Z-1.780
G00 Z3.000
M05
(  )
T112 M06
( Routing )
M03 S10000
G0  X-0.793 Y52.794
G0  Z3.000
G01 F200 Z0
G01 F200 Z-0.790
G01F200X-0.793 Y-0.793
X68.794 Y-0.793
X68.794 Y52.794
X-0.793 Y52.794
G0 Z3.000
M03 S10000
G0  X-0.793 Y52.794
G0  Z3.000
G01 F200 Z0
G01 F200 Z-1.580
G01F200X-0.793 Y-0.793
X68.794 Y-0.793
X68.794 Y52.794
X-0.793 Y52.794
G0 Z3.000
G00 Z3.000
M05
M30
%